(Made in : Autodesk CAM Post Processor)
(G-Code optimized for Grbl 1.1 / BlackBox controller)
(OpenBuilds CNC : GRBL/BlackBox)
(Post-Processor : OpenbuildsFusion360PostGrbl.cps V1.0.32)
(Units = mm)

(Drawing name : Chasis - CNC2 v1)
(Program Name : Chasis_Sumobot_Contour)

(1 Operation :)
(1 : 2D Contour1)
(  Tool 3: Flat End Mill 1 Flutes, Diam = 1.5mm, Len = 5.00mm)
(  Spindle : RPM = 17000)
(  Machining time : 5 min 52 sec)

G90 G94 G17
G21


(Operation 1 of 1 : 2D Contour1)
G54
(This relies on homing, see https://openbuilds.com/search/127200199/?q=G53+fusion )
G53 G0 Z-10
G0 X105.103 Y98.436
S17000 M3
G4 P1.8
G0 X105.103 Y98.436 Z15
Z5
G1 X105.103 Y98.436 Z2 F333
X105.103 Y98.436 Z-0.85
X105.123 Y98.436 Z-0.925 F1000
X105.178 Y98.436 Z-0.98
X105.253 Y98.436 Z-1
X105.403 Y98.436
X105.478 Y98.456
X105.533 Y98.511
X105.553 Y98.586
G3 X103.553 Y98.586 I-1 J0
X105.553 Y98.586 I1 J0
G1 X105.533 Y98.661
X105.478 Y98.716
X105.403 Y98.736
X105.253 Y98.736
X105.178 Y98.736 Z-0.98
X105.123 Y98.736 Z-0.925
X105.103 Y98.736 Z-0.85
G0 Z10
Y98.436
Z5
G1 X105.103 Y98.436 Z1 F333
X105.103 Y98.436 Z-1.85
X105.123 Y98.436 Z-1.925 F1000
X105.178 Y98.436 Z-1.98
X105.253 Y98.436 Z-2
X105.403 Y98.436
X105.478 Y98.456
X105.533 Y98.511
X105.553 Y98.586
G3 X103.553 Y98.586 I-1 J0
X105.553 Y98.586 I1 J0
G1 X105.533 Y98.661
X105.478 Y98.716
X105.403 Y98.736
X105.253 Y98.736
X105.178 Y98.736 Z-1.98
X105.123 Y98.736 Z-1.925
X105.103 Y98.736 Z-1.85
G0 Z10
Y98.436
Z5
G1 X105.103 Y98.436 Z0 F333
X105.103 Y98.436 Z-2.85
X105.123 Y98.436 Z-2.925 F1000
X105.178 Y98.436 Z-2.98
X105.253 Y98.436 Z-3
X105.403 Y98.436
X105.478 Y98.456
X105.533 Y98.511
X105.553 Y98.586
G3 X103.553 Y98.586 I-1 J0
X105.553 Y98.586 I1 J0
G1 X105.533 Y98.661
X105.478 Y98.716
X105.403 Y98.736
X105.253 Y98.736
X105.178 Y98.736 Z-2.98
X105.123 Y98.736 Z-2.925
X105.103 Y98.736 Z-2.85
G0 Z10
X131.675 Y82.492
Z5
G1 X131.675 Y82.492 Z2 F333
X131.675 Y82.492 Z-0.85
X131.695 Y82.492 Z-0.925 F1000
X131.75 Y82.492 Z-0.98
X131.825 Y82.492 Z-1
X131.975 Y82.492
X132.05 Y82.512
X132.105 Y82.567
X132.125 Y82.642
G3 X130.625 Y82.642 I-0.75 J0
X132.125 Y82.642 I0.75 J0
G1 X132.105 Y82.717
X132.05 Y82.772
X131.975 Y82.792
X131.825 Y82.792
X131.75 Y82.792 Z-0.98
X131.695 Y82.792 Z-0.925
X131.675 Y82.792 Z-0.85
G0 Z10
Y82.492
Z5
G1 X131.675 Y82.492 Z1 F333
X131.675 Y82.492 Z-1.85
X131.695 Y82.492 Z-1.925 F1000
X131.75 Y82.492 Z-1.98
X131.825 Y82.492 Z-2
X131.975 Y82.492
X132.05 Y82.512
X132.105 Y82.567
X132.125 Y82.642
G3 X130.625 Y82.642 I-0.75 J0
X132.125 Y82.642 I0.75 J0
G1 X132.105 Y82.717
X132.05 Y82.772
X131.975 Y82.792
X131.825 Y82.792
X131.75 Y82.792 Z-1.98
X131.695 Y82.792 Z-1.925
X131.675 Y82.792 Z-1.85
G0 Z10
Y82.492
Z5
G1 X131.675 Y82.492 Z0 F333
X131.675 Y82.492 Z-2.85
X131.695 Y82.492 Z-2.925 F1000
X131.75 Y82.492 Z-2.98
X131.825 Y82.492 Z-3
X131.975 Y82.492
X132.05 Y82.512
X132.105 Y82.567
X132.125 Y82.642
G3 X130.625 Y82.642 I-0.75 J0
X132.125 Y82.642 I0.75 J0
G1 X132.105 Y82.717
X132.05 Y82.772
X131.975 Y82.792
X131.825 Y82.792
X131.75 Y82.792 Z-2.98
X131.695 Y82.792 Z-2.925
X131.675 Y82.792 Z-2.85
G0 Z10
Y77.208
Z5
G1 X131.675 Y77.208 Z2 F333
X131.675 Y77.208 Z-0.85
X131.695 Y77.208 Z-0.925 F1000
X131.75 Y77.208 Z-0.98
X131.825 Y77.208 Z-1
X131.975 Y77.208
X132.05 Y77.228
X132.105 Y77.283
X132.125 Y77.358
G3 X130.625 Y77.358 I-0.75 J0
X132.125 Y77.358 I0.75 J0
G1 X132.105 Y77.433
X132.05 Y77.488
X131.975 Y77.508
X131.825 Y77.508
X131.75 Y77.508 Z-0.98
X131.695 Y77.508 Z-0.925
X131.675 Y77.508 Z-0.85
G0 Z10
Y77.208
Z5
G1 X131.675 Y77.208 Z1 F333
X131.675 Y77.208 Z-1.85
X131.695 Y77.208 Z-1.925 F1000
X131.75 Y77.208 Z-1.98
X131.825 Y77.208 Z-2
X131.975 Y77.208
X132.05 Y77.228
X132.105 Y77.283
X132.125 Y77.358
G3 X130.625 Y77.358 I-0.75 J0
X132.125 Y77.358 I0.75 J0
G1 X132.105 Y77.433
X132.05 Y77.488
X131.975 Y77.508
X131.825 Y77.508
X131.75 Y77.508 Z-1.98
X131.695 Y77.508 Z-1.925
X131.675 Y77.508 Z-1.85
G0 Z10
Y77.208
Z5
G1 X131.675 Y77.208 Z0 F333
X131.675 Y77.208 Z-2.85
X131.695 Y77.208 Z-2.925 F1000
X131.75 Y77.208 Z-2.98
X131.825 Y77.208 Z-3
X131.975 Y77.208
X132.05 Y77.228
X132.105 Y77.283
X132.125 Y77.358
G3 X130.625 Y77.358 I-0.75 J0
X132.125 Y77.358 I0.75 J0
G1 X132.105 Y77.433
X132.05 Y77.488
X131.975 Y77.508
X131.825 Y77.508
X131.75 Y77.508 Z-2.98
X131.695 Y77.508 Z-2.925
X131.675 Y77.508 Z-2.85
G0 Z10
X153.6 Y84.45
Z5
G1 X153.6 Y84.45 Z2 F333
X153.6 Y84.45 Z-0.85
X153.62 Y84.45 Z-0.925 F1000
X153.675 Y84.45 Z-0.98
X153.75 Y84.45 Z-1
X153.9 Y84.45
X153.975 Y84.47
X154.03 Y84.525
X154.05 Y84.6
X154.05 Y86.35
X150.55 Y86.35
X150.55 Y73.65
X154.05 Y73.65
X154.05 Y84.6
X154.03 Y84.675
X153.975 Y84.73
X153.9 Y84.75
X153.75 Y84.75
X153.675 Y84.75 Z-0.98
X153.62 Y84.75 Z-0.925
X153.6 Y84.75 Z-0.85
G0 Z10
Y84.45
Z5
G1 X153.6 Y84.45 Z1 F333
X153.6 Y84.45 Z-1.85
X153.62 Y84.45 Z-1.925 F1000
X153.675 Y84.45 Z-1.98
X153.75 Y84.45 Z-2
X153.9 Y84.45
X153.975 Y84.47
X154.03 Y84.525
X154.05 Y84.6
X154.05 Y86.35
X150.55 Y86.35
X150.55 Y73.65
X154.05 Y73.65
X154.05 Y84.6
X154.03 Y84.675
X153.975 Y84.73
X153.9 Y84.75
X153.75 Y84.75
X153.675 Y84.75 Z-1.98
X153.62 Y84.75 Z-1.925
X153.6 Y84.75 Z-1.85
G0 Z10
Y84.45
Z5
G1 X153.6 Y84.45 Z0 F333
X153.6 Y84.45 Z-2.85
X153.62 Y84.45 Z-2.925 F1000
X153.675 Y84.45 Z-2.98
X153.75 Y84.45 Z-3
X153.9 Y84.45
X153.975 Y84.47
X154.03 Y84.525
X154.05 Y84.6
X154.05 Y86.35
X151.45 Y86.35
X151.45 Y86.35 Z-2.625
X150.55 Y86.35
X150.55 Y85.6
X150.55 Y85.6 Z-3 F333
X150.55 Y75.8 F1000
X150.55 Y75.8 Z-2.625
X150.55 Y73.65
X151.45 Y73.65
X151.45 Y73.65 Z-3 F333
X154.05 Y73.65 F1000
X154.05 Y77.8
X154.05 Y77.8 Z-2.625
X154.05 Y80.8
X154.05 Y80.8 Z-3 F333
X154.05 Y84.6 F1000
X154.03 Y84.675
X153.975 Y84.73
X153.9 Y84.75
X153.75 Y84.75
X153.675 Y84.75 Z-2.98
X153.62 Y84.75 Z-2.925
X153.6 Y84.75 Z-2.85
G0 Z10
X150.932 Y95.6
Z5
G1 X150.932 Y95.6 Z2 F333
X150.932 Y95.6 Z-0.85
X150.951 Y95.606 Z-0.925 F1000
X151.003 Y95.623 Z-0.98
X151.074 Y95.646 Z-1
X151.217 Y95.693
X151.282 Y95.735
X151.317 Y95.804
X151.313 Y95.882
X151.207 Y96.091
X151.041 Y96.257
X150.832 Y96.363
X150.6 Y96.4
X150.368 Y96.363
X150.159 Y96.257
X149.993 Y96.091
X149.887 Y95.882
X149.85 Y95.65
X149.887 Y95.418
X149.993 Y95.209
X150.159 Y95.043
X150.368 Y94.937
X150.6 Y94.9
X150.832 Y94.937
X151.041 Y95.043
X151.207 Y95.209
X151.313 Y95.418
X151.35 Y95.65
X151.313 Y95.882
X151.271 Y95.947
X151.202 Y95.982
X151.124 Y95.978
X150.982 Y95.932
X150.91 Y95.909 Z-0.98
X150.858 Y95.892 Z-0.925
X150.839 Y95.885 Z-0.85
G0 Z10
X150.932 Y95.6
Z5
G1 X150.932 Y95.6 Z1 F333
X150.932 Y95.6 Z-1.85
X150.951 Y95.606 Z-1.925 F1000
X151.003 Y95.623 Z-1.98
X151.074 Y95.646 Z-2
X151.217 Y95.693
X151.282 Y95.735
X151.317 Y95.804
X151.313 Y95.882
X151.207 Y96.091
X151.041 Y96.257
X150.832 Y96.363
X150.6 Y96.4
X150.368 Y96.363
X150.159 Y96.257
X149.993 Y96.091
X149.887 Y95.882
X149.85 Y95.65
X149.887 Y95.418
X149.993 Y95.209
X150.159 Y95.043
X150.368 Y94.937
X150.6 Y94.9
X150.832 Y94.937
X151.041 Y95.043
X151.207 Y95.209
X151.313 Y95.418
X151.35 Y95.65
X151.313 Y95.882
X151.271 Y95.947
X151.202 Y95.982
X151.124 Y95.978
X150.982 Y95.932
X150.91 Y95.909 Z-1.98
X150.858 Y95.892 Z-1.925
X150.839 Y95.885 Z-1.85
G0 Z10
X150.932 Y95.6
Z5
G1 X150.932 Y95.6 Z0 F333
X150.932 Y95.6 Z-2.85
X150.951 Y95.606 Z-2.925 F1000
X151.003 Y95.623 Z-2.98
X151.074 Y95.646 Z-3
X151.217 Y95.693
X151.282 Y95.735
X151.317 Y95.804
X151.313 Y95.882
X151.207 Y96.091
X151.041 Y96.257
X150.832 Y96.363
X150.6 Y96.4
X150.368 Y96.363
X150.159 Y96.257
X149.993 Y96.091
X149.887 Y95.882
X149.85 Y95.65
X149.887 Y95.418
X149.993 Y95.209
X150.159 Y95.043
X150.368 Y94.937
X150.6 Y94.9
X150.832 Y94.937
X151.041 Y95.043
X151.207 Y95.209
X151.313 Y95.418
X151.35 Y95.65
X151.313 Y95.882
X151.271 Y95.947
X151.202 Y95.982
X151.124 Y95.978
X150.982 Y95.932
X150.91 Y95.909 Z-2.98
X150.858 Y95.892 Z-2.925
X150.839 Y95.885 Z-2.85
G0 Z10
X181.2 Y80.15
Z5
G1 X181.2 Y80.15 Z2 F333
X181.2 Y80.15 Z-0.85
X181.18 Y80.15 Z-0.925 F1000
X181.125 Y80.15 Z-0.98
X181.05 Y80.15 Z-1
X180.9 Y80.15
X180.825 Y80.13
X180.77 Y80.075
X180.75 Y80
X180.75 Y59.85
G2 X180 Y59.1 I-0.75 J0
G1 X160.75 Y59.1
X160.75 Y15
G2 X160 Y14.25 I-0.75 J0
G1 X90.75 Y14.25
X90.75 Y0
G2 X90 Y-0.75 I-0.75 J0
G1 X0 Y-0.75
G2 X-0.75 Y0 I0 J0.75
G1 X-0.75 Y160
G2 X0 Y160.75 I0.75 J0
G1 X90 Y160.75
G2 X90.75 Y160 I0 J-0.75
G1 X90.75 Y145.75
X160 Y145.75
G2 X160.75 Y145 I0 J-0.75
G1 X160.75 Y100.9
X180 Y100.9
G2 X180.75 Y100.15 I0 J-0.75
G1 X180.75 Y80
X180.77 Y79.925
X180.825 Y79.87
X180.9 Y79.85
X181.05 Y79.85
X181.125 Y79.85 Z-0.98
X181.18 Y79.85 Z-0.925
X181.2 Y79.85 Z-0.85
G0 Z10
Y80.15
Z5
G1 X181.2 Y80.15 Z1 F333
X181.2 Y80.15 Z-1.85
X181.18 Y80.15 Z-1.925 F1000
X181.125 Y80.15 Z-1.98
X181.05 Y80.15 Z-2
X180.9 Y80.15
X180.825 Y80.13
X180.77 Y80.075
X180.75 Y80
X180.75 Y59.85
G2 X180 Y59.1 I-0.75 J0
G1 X160.75 Y59.1
X160.75 Y15
G2 X160 Y14.25 I-0.75 J0
G1 X90.75 Y14.25
X90.75 Y0
G2 X90 Y-0.75 I-0.75 J0
G1 X0 Y-0.75
G2 X-0.75 Y0 I0 J0.75
G1 X-0.75 Y160
G2 X0 Y160.75 I0.75 J0
G1 X90 Y160.75
G2 X90.75 Y160 I0 J-0.75
G1 X90.75 Y145.75
X160 Y145.75
G2 X160.75 Y145 I0 J-0.75
G1 X160.75 Y100.9
X180 Y100.9
G2 X180.75 Y100.15 I0 J-0.75
G1 X180.75 Y80
X180.77 Y79.925
X180.825 Y79.87
X180.9 Y79.85
X181.05 Y79.85
X181.125 Y79.85 Z-1.98
X181.18 Y79.85 Z-1.925
X181.2 Y79.85 Z-1.85
G0 Z10
Y80.15
Z5
G1 X181.2 Y80.15 Z0 F333
X181.2 Y80.15 Z-2.625
X181.05 Y80.15 F1000
X180.9 Y80.15
X180.825 Y80.13
X180.77 Y80.075
X180.75 Y80
X180.75 Y79.571
X180.75 Y79.571 Z-3 F333
X180.75 Y70.429 F1000
X180.75 Y70.429 Z-2.625
X180.75 Y67.429
X180.75 Y67.429 Z-3 F333
X180.75 Y59.85 F1000
G2 X180 Y59.1 I-0.75 J0
G1 X178.436 Y59.1
X178.436 Y59.1 Z-2.625
X175.436 Y59.1
X175.436 Y59.1 Z-3 F333
X166.293 Y59.1 F1000
X166.293 Y59.1 Z-2.625
X163.293 Y59.1
X163.293 Y59.1 Z-3 F333
X160.75 Y59.1 F1000
X160.75 Y54
X160.75 Y54 Z-2.625
X160.75 Y51
X160.75 Y51 Z-3 F333
X160.75 Y41.857 F1000
X160.75 Y41.857 Z-2.625
X160.75 Y38.857
X160.75 Y38.857 Z-3 F333
X160.75 Y29.714 F1000
X160.75 Y29.714 Z-2.625
X160.75 Y26.714
X160.75 Y26.714 Z-3 F333
X160.75 Y17.571 F1000
X160.75 Y17.571 Z-2.625
X160.75 Y15
G2 X160.615 Y14.571 I-0.75 J0
G1 X160.615 Y14.571 Z-3 F333
X160.449 Y14.399 F1000
X160.237 Y14.288
X160 Y14.25
X150.429 Y14.25
X150.429 Y14.25 Z-2.625
X147.429 Y14.25
X147.429 Y14.25 Z-3 F333
X138.286 Y14.25 F1000
X138.286 Y14.25 Z-2.625
X135.286 Y14.25
X135.286 Y14.25 Z-3 F333
X126.143 Y14.25 F1000
X126.143 Y14.25 Z-2.625
X123.143 Y14.25
X123.143 Y14.25 Z-3 F333
X114 Y14.25 F1000
X114 Y14.25 Z-2.625
X111 Y14.25
X111 Y14.25 Z-3 F333
X101.857 Y14.25 F1000
X101.857 Y14.25 Z-2.625
X98.857 Y14.25
X98.857 Y14.25 Z-3 F333
X91.65 Y14.25 F1000
X91.65 Y14.25 Z-2.625
X90.75 Y14.25
X90.75 Y11.714
X90.75 Y11.714 Z-3 F333
X90.75 Y2.571 F1000
X90.75 Y2.571 Z-2.625
X90.75 Y0
G2 X90.615 Y-0.429 I-0.75 J0
G1 X90.615 Y-0.429 Z-3 F333
X90.449 Y-0.601 F1000
X90.237 Y-0.712
X90 Y-0.75
X80.429 Y-0.75
X80.429 Y-0.75 Z-2.625
X77.429 Y-0.75
X77.429 Y-0.75 Z-3 F333
X68.286 Y-0.75 F1000
X68.286 Y-0.75 Z-2.625
X65.286 Y-0.75
X65.286 Y-0.75 Z-3 F333
X56.143 Y-0.75 F1000
X56.143 Y-0.75 Z-2.625
X53.143 Y-0.75
X53.143 Y-0.75 Z-3 F333
X44 Y-0.75 F1000
X44 Y-0.75 Z-2.625
X41 Y-0.75
X41 Y-0.75 Z-3 F333
X31.857 Y-0.75 F1000
X31.857 Y-0.75 Z-2.625
X28.857 Y-0.75
X28.857 Y-0.75 Z-3 F333
X19.714 Y-0.75 F1000
X19.714 Y-0.75 Z-2.625
X16.714 Y-0.75
X16.714 Y-0.75 Z-3 F333
X7.571 Y-0.75 F1000
X7.571 Y-0.75 Z-2.625
X4.571 Y-0.75
X4.571 Y-0.75 Z-3 F333
X0 Y-0.75 F1000
G2 X-0.75 Y0 I0 J0.75
G1 X-0.75 Y4.571
X-0.75 Y4.571 Z-2.625
X-0.75 Y7.571
X-0.75 Y7.571 Z-3 F333
X-0.75 Y16.714 F1000
X-0.75 Y16.714 Z-2.625
X-0.75 Y19.714
X-0.75 Y19.714 Z-3 F333
X-0.75 Y28.857 F1000
X-0.75 Y28.857 Z-2.625
X-0.75 Y31.857
X-0.75 Y31.857 Z-3 F333
X-0.75 Y41 F1000
X-0.75 Y41 Z-2.625
X-0.75 Y44
X-0.75 Y44 Z-3 F333
X-0.75 Y53.143 F1000
X-0.75 Y53.143 Z-2.625
X-0.75 Y56.143
X-0.75 Y56.143 Z-3 F333
X-0.75 Y65.286 F1000
X-0.75 Y65.286 Z-2.625
X-0.75 Y68.286
X-0.75 Y68.286 Z-3 F333
X-0.75 Y77.429 F1000
X-0.75 Y77.429 Z-2.625
X-0.75 Y80.429
X-0.75 Y80.429 Z-3 F333
X-0.75 Y89.571 F1000
X-0.75 Y89.571 Z-2.625
X-0.75 Y92.571
X-0.75 Y92.571 Z-3 F333
X-0.75 Y101.714 F1000
X-0.75 Y101.714 Z-2.625
X-0.75 Y104.714
X-0.75 Y104.714 Z-3 F333
X-0.75 Y113.857 F1000
X-0.75 Y113.857 Z-2.625
X-0.75 Y116.857
X-0.75 Y116.857 Z-3 F333
X-0.75 Y126 F1000
X-0.75 Y126 Z-2.625
X-0.75 Y129
X-0.75 Y129 Z-3 F333
X-0.75 Y138.143 F1000
X-0.75 Y138.143 Z-2.625
X-0.75 Y141.143
X-0.75 Y141.143 Z-3 F333
X-0.75 Y150.286 F1000
X-0.75 Y150.286 Z-2.625
X-0.75 Y153.286
X-0.75 Y153.286 Z-3 F333
X-0.75 Y160 F1000
G2 X0 Y160.75 I0.75 J0
G1 X2.429 Y160.75
X2.429 Y160.75 Z-2.625
X5.429 Y160.75
X5.429 Y160.75 Z-3 F333
X14.571 Y160.75 F1000
X14.571 Y160.75 Z-2.625
X17.571 Y160.75
X17.571 Y160.75 Z-3 F333
X26.714 Y160.75 F1000
X26.714 Y160.75 Z-2.625
X29.714 Y160.75
X29.714 Y160.75 Z-3 F333
X38.857 Y160.75 F1000
X38.857 Y160.75 Z-2.625
X41.857 Y160.75
X41.857 Y160.75 Z-3 F333
X51 Y160.75 F1000
X51 Y160.75 Z-2.625
X54 Y160.75
X54 Y160.75 Z-3 F333
X63.143 Y160.75 F1000
X63.143 Y160.75 Z-2.625
X66.143 Y160.75
X66.143 Y160.75 Z-3 F333
X75.286 Y160.75 F1000
X75.286 Y160.75 Z-2.625
X78.286 Y160.75
X78.286 Y160.75 Z-3 F333
X87.429 Y160.75 F1000
X87.429 Y160.75 Z-2.625
X90 Y160.75
G2 X90.429 Y160.615 I0 J-0.75
G1 X90.429 Y160.615 Z-3 F333
X90.601 Y160.449 F1000
X90.712 Y160.237
X90.75 Y160
X90.75 Y150.429
X90.75 Y150.429 Z-2.625
X90.75 Y147.429
X90.75 Y147.429 Z-3 F333
X90.75 Y145.75 F1000
X96.714 Y145.75
X96.714 Y145.75 Z-2.625
X99.714 Y145.75
X99.714 Y145.75 Z-3 F333
X108.857 Y145.75 F1000
X108.857 Y145.75 Z-2.625
X111.857 Y145.75
X111.857 Y145.75 Z-3 F333
X121 Y145.75 F1000
X121 Y145.75 Z-2.625
X124 Y145.75
X124 Y145.75 Z-3 F333
X133.143 Y145.75 F1000
X133.143 Y145.75 Z-2.625
X136.143 Y145.75
X136.143 Y145.75 Z-3 F333
X145.286 Y145.75 F1000
X145.286 Y145.75 Z-2.625
X148.286 Y145.75
X148.286 Y145.75 Z-3 F333
X157.429 Y145.75 F1000
X157.429 Y145.75 Z-2.625
X160 Y145.75
G2 X160.429 Y145.615 I0 J-0.75
G1 X160.429 Y145.615 Z-3 F333
X160.601 Y145.449 F1000
X160.712 Y145.236
X160.75 Y145
X160.75 Y135.429
X160.75 Y135.429 Z-2.625
X160.75 Y132.429
X160.75 Y132.429 Z-3 F333
X160.75 Y123.286 F1000
X160.75 Y123.286 Z-2.625
X160.75 Y120.286
X160.75 Y120.286 Z-3 F333
X160.75 Y111.143 F1000
X160.75 Y111.143 Z-2.625
X160.75 Y108.143
X160.75 Y108.143 Z-3 F333
X160.75 Y100.9 F1000
X161.15 Y100.9
X161.15 Y100.9 Z-2.625
X164.15 Y100.9
X164.15 Y100.9 Z-3 F333
X173.293 Y100.9 F1000
X173.293 Y100.9 Z-2.625
X176.293 Y100.9
X176.293 Y100.9 Z-3 F333
X180 Y100.9 F1000
G2 X180.75 Y100.15 I0 J-0.75
G1 X180.75 Y94.714
X180.75 Y94.714 Z-2.625
X180.75 Y91.714
X180.75 Y91.714 Z-3 F333
X180.75 Y82.571 F1000
X180.75 Y82.571 Z-2.625
X180.75 Y80
X180.77 Y79.925
X180.825 Y79.87
X180.9 Y79.85
X181.2 Y79.85
G0 Z10
X170.3 Y64.2
Z5
G1 X170.3 Y64.2 Z2 F333
X170.3 Y64.2 Z-0.85
X170.32 Y64.2 Z-0.925 F1000
X170.375 Y64.2 Z-0.98
X170.45 Y64.2 Z-1
X170.6 Y64.2
X170.675 Y64.22
X170.73 Y64.275
X170.75 Y64.35
G3 X169.25 Y64.35 I-0.75 J0
X170.75 Y64.35 I0.75 J0
G1 X170.73 Y64.425
X170.675 Y64.48
X170.6 Y64.5
X170.45 Y64.5
X170.375 Y64.5 Z-0.98
X170.32 Y64.5 Z-0.925
X170.3 Y64.5 Z-0.85
G0 Z10
Y64.2
Z5
G1 X170.3 Y64.2 Z1 F333
X170.3 Y64.2 Z-1.85
X170.32 Y64.2 Z-1.925 F1000
X170.375 Y64.2 Z-1.98
X170.45 Y64.2 Z-2
X170.6 Y64.2
X170.675 Y64.22
X170.73 Y64.275
X170.75 Y64.35
G3 X169.25 Y64.35 I-0.75 J0
X170.75 Y64.35 I0.75 J0
G1 X170.73 Y64.425
X170.675 Y64.48
X170.6 Y64.5
X170.45 Y64.5
X170.375 Y64.5 Z-1.98
X170.32 Y64.5 Z-1.925
X170.3 Y64.5 Z-1.85
G0 Z10
Y64.2
Z5
G1 X170.3 Y64.2 Z0 F333
X170.3 Y64.2 Z-2.85
X170.32 Y64.2 Z-2.925 F1000
X170.375 Y64.2 Z-2.98
X170.45 Y64.2 Z-3
X170.6 Y64.2
X170.675 Y64.22
X170.73 Y64.275
X170.75 Y64.35
G3 X169.25 Y64.35 I-0.75 J0
X170.75 Y64.35 I0.75 J0
G1 X170.73 Y64.425
X170.675 Y64.48
X170.6 Y64.5
X170.45 Y64.5
X170.375 Y64.5 Z-2.98
X170.32 Y64.5 Z-2.925
X170.3 Y64.5 Z-2.85
G0 Z10
X150.9 Y64.2
Z5
G1 X150.9 Y64.2 Z2 F333
X150.9 Y64.2 Z-0.85
X150.92 Y64.2 Z-0.925 F1000
X150.975 Y64.2 Z-0.98
X151.05 Y64.2 Z-1
X151.2 Y64.2
X151.275 Y64.22
X151.33 Y64.275
X151.35 Y64.35
G3 X149.85 Y64.35 I-0.75 J0
X151.35 Y64.35 I0.75 J0
G1 X151.33 Y64.425
X151.275 Y64.48
X151.2 Y64.5
X151.05 Y64.5
X150.975 Y64.5 Z-0.98
X150.92 Y64.5 Z-0.925
X150.9 Y64.5 Z-0.85
G0 Z10
Y64.2
Z5
G1 X150.9 Y64.2 Z1 F333
X150.9 Y64.2 Z-1.85
X150.92 Y64.2 Z-1.925 F1000
X150.975 Y64.2 Z-1.98
X151.05 Y64.2 Z-2
X151.2 Y64.2
X151.275 Y64.22
X151.33 Y64.275
X151.35 Y64.35
G3 X149.85 Y64.35 I-0.75 J0
X151.35 Y64.35 I0.75 J0
G1 X151.33 Y64.425
X151.275 Y64.48
X151.2 Y64.5
X151.05 Y64.5
X150.975 Y64.5 Z-1.98
X150.92 Y64.5 Z-1.925
X150.9 Y64.5 Z-1.85
G0 Z10
Y64.2
Z5
G1 X150.9 Y64.2 Z0 F333
X150.9 Y64.2 Z-2.85
X150.92 Y64.2 Z-2.925 F1000
X150.975 Y64.2 Z-2.98
X151.05 Y64.2 Z-3
X151.2 Y64.2
X151.275 Y64.22
X151.33 Y64.275
X151.35 Y64.35
G3 X149.85 Y64.35 I-0.75 J0
X151.35 Y64.35 I0.75 J0
G1 X151.33 Y64.425
X151.275 Y64.48
X151.2 Y64.5
X151.05 Y64.5
X150.975 Y64.5 Z-2.98
X150.92 Y64.5 Z-2.925
X150.9 Y64.5 Z-2.85
G0 Z10
X170.332 Y95.6
Z5
G1 X170.332 Y95.6 Z2 F333
X170.332 Y95.6 Z-0.85
X170.351 Y95.606 Z-0.925 F1000
X170.403 Y95.623 Z-0.98
X170.474 Y95.646 Z-1
X170.617 Y95.693
X170.682 Y95.735
X170.717 Y95.804
X170.713 Y95.882
X170.607 Y96.091
X170.441 Y96.257
X170.232 Y96.363
X170 Y96.4
X169.768 Y96.363
X169.559 Y96.257
X169.393 Y96.091
X169.287 Y95.882
X169.25 Y95.65
X169.287 Y95.418
X169.393 Y95.209
X169.559 Y95.043
X169.768 Y94.937
X170 Y94.9
X170.232 Y94.937
X170.441 Y95.043
X170.607 Y95.209
X170.713 Y95.418
X170.75 Y95.65
X170.713 Y95.882
X170.671 Y95.947
X170.602 Y95.982
X170.524 Y95.978
X170.382 Y95.932
X170.31 Y95.909 Z-0.98
X170.258 Y95.892 Z-0.925
X170.239 Y95.885 Z-0.85
G0 Z10
X170.332 Y95.6
Z5
G1 X170.332 Y95.6 Z1 F333
X170.332 Y95.6 Z-1.85
X170.351 Y95.606 Z-1.925 F1000
X170.403 Y95.623 Z-1.98
X170.474 Y95.646 Z-2
X170.617 Y95.693
X170.682 Y95.735
X170.717 Y95.804
X170.713 Y95.882
X170.607 Y96.091
X170.441 Y96.257
X170.232 Y96.363
X170 Y96.4
X169.768 Y96.363
X169.559 Y96.257
X169.393 Y96.091
X169.287 Y95.882
X169.25 Y95.65
X169.287 Y95.418
X169.393 Y95.209
X169.559 Y95.043
X169.768 Y94.937
X170 Y94.9
X170.232 Y94.937
X170.441 Y95.043
X170.607 Y95.209
X170.713 Y95.418
X170.75 Y95.65
X170.713 Y95.882
X170.671 Y95.947
X170.602 Y95.982
X170.524 Y95.978
X170.382 Y95.932
X170.31 Y95.909 Z-1.98
X170.258 Y95.892 Z-1.925
X170.239 Y95.885 Z-1.85
G0 Z10
X170.332 Y95.6
Z5
G1 X170.332 Y95.6 Z0 F333
X170.332 Y95.6 Z-2.85
X170.351 Y95.606 Z-2.925 F1000
X170.403 Y95.623 Z-2.98
X170.474 Y95.646 Z-3
X170.617 Y95.693
X170.682 Y95.735
X170.717 Y95.804
X170.713 Y95.882
X170.607 Y96.091
X170.441 Y96.257
X170.232 Y96.363
X170 Y96.4
X169.768 Y96.363
X169.559 Y96.257
X169.393 Y96.091
X169.287 Y95.882
X169.25 Y95.65
X169.287 Y95.418
X169.393 Y95.209
X169.559 Y95.043
X169.768 Y94.937
X170 Y94.9
X170.232 Y94.937
X170.441 Y95.043
X170.607 Y95.209
X170.713 Y95.418
X170.75 Y95.65
X170.713 Y95.882
X170.671 Y95.947
X170.602 Y95.982
X170.524 Y95.978
X170.382 Y95.932
X170.31 Y95.909 Z-2.98
X170.258 Y95.892 Z-2.925
X170.239 Y95.885 Z-2.85
G0 Z10
X144.8 Y136.792
Z5
G1 X144.8 Y136.792 Z2 F333
X144.8 Y136.792 Z-0.85
X144.82 Y136.792 Z-0.925 F1000
X144.875 Y136.792 Z-0.98
X144.95 Y136.792 Z-1
X145.1 Y136.792
X145.175 Y136.812
X145.23 Y136.867
X145.25 Y136.942
G3 X143.75 Y136.942 I-0.75 J0
X145.25 Y136.942 I0.75 J0
G1 X145.23 Y137.017
X145.175 Y137.072
X145.1 Y137.092
X144.95 Y137.092
X144.875 Y137.092 Z-0.98
X144.82 Y137.092 Z-0.925
X144.8 Y137.092 Z-0.85
G0 Z10
Y136.792
Z5
G1 X144.8 Y136.792 Z1 F333
X144.8 Y136.792 Z-1.85
X144.82 Y136.792 Z-1.925 F1000
X144.875 Y136.792 Z-1.98
X144.95 Y136.792 Z-2
X145.1 Y136.792
X145.175 Y136.812
X145.23 Y136.867
X145.25 Y136.942
G3 X143.75 Y136.942 I-0.75 J0
X145.25 Y136.942 I0.75 J0
G1 X145.23 Y137.017
X145.175 Y137.072
X145.1 Y137.092
X144.95 Y137.092
X144.875 Y137.092 Z-1.98
X144.82 Y137.092 Z-1.925
X144.8 Y137.092 Z-1.85
G0 Z10
Y136.792
Z5
G1 X144.8 Y136.792 Z0 F333
X144.8 Y136.792 Z-2.85
X144.82 Y136.792 Z-2.925 F1000
X144.875 Y136.792 Z-2.98
X144.95 Y136.792 Z-3
X145.1 Y136.792
X145.175 Y136.812
X145.23 Y136.867
X145.25 Y136.942
G3 X143.75 Y136.942 I-0.75 J0
X145.25 Y136.942 I0.75 J0
G1 X145.23 Y137.017
X145.175 Y137.072
X145.1 Y137.092
X144.95 Y137.092
X144.875 Y137.092 Z-2.98
X144.82 Y137.092 Z-2.925
X144.8 Y137.092 Z-2.85
G0 Z10
X105.8 Y136.792
Z5
G1 X105.8 Y136.792 Z2 F333
X105.8 Y136.792 Z-0.85
X105.82 Y136.792 Z-0.925 F1000
X105.875 Y136.792 Z-0.98
X105.95 Y136.792 Z-1
X106.1 Y136.792
X106.175 Y136.812
X106.23 Y136.867
X106.25 Y136.942
G3 X104.75 Y136.942 I-0.75 J0
X106.25 Y136.942 I0.75 J0
G1 X106.23 Y137.017
X106.175 Y137.072
X106.1 Y137.092
X105.95 Y137.092
X105.875 Y137.092 Z-0.98
X105.82 Y137.092 Z-0.925
X105.8 Y137.092 Z-0.85
G0 Z10
Y136.792
Z5
G1 X105.8 Y136.792 Z1 F333
X105.8 Y136.792 Z-1.85
X105.82 Y136.792 Z-1.925 F1000
X105.875 Y136.792 Z-1.98
X105.95 Y136.792 Z-2
X106.1 Y136.792
X106.175 Y136.812
X106.23 Y136.867
X106.25 Y136.942
G3 X104.75 Y136.942 I-0.75 J0
X106.25 Y136.942 I0.75 J0
G1 X106.23 Y137.017
X106.175 Y137.072
X106.1 Y137.092
X105.95 Y137.092
X105.875 Y137.092 Z-1.98
X105.82 Y137.092 Z-1.925
X105.8 Y137.092 Z-1.85
G0 Z10
Y136.792
Z5
G1 X105.8 Y136.792 Z0 F333
X105.8 Y136.792 Z-2.85
X105.82 Y136.792 Z-2.925 F1000
X105.875 Y136.792 Z-2.98
X105.95 Y136.792 Z-3
X106.1 Y136.792
X106.175 Y136.812
X106.23 Y136.867
X106.25 Y136.942
G3 X104.75 Y136.942 I-0.75 J0
X106.25 Y136.942 I0.75 J0
G1 X106.23 Y137.017
X106.175 Y137.072
X106.1 Y137.092
X105.95 Y137.092
X105.875 Y137.092 Z-2.98
X105.82 Y137.092 Z-2.925
X105.8 Y137.092 Z-2.85
G0 Z10
X87.3 Y144.903
Z5
G1 X87.3 Y144.903 Z2 F333
X87.3 Y144.903 Z-0.85
X87.32 Y144.903 Z-0.925 F1000
X87.375 Y144.903 Z-0.98
X87.45 Y144.903 Z-1
X87.6 Y144.903
X87.675 Y144.923
X87.73 Y144.978
X87.75 Y145.053
G3 X86.25 Y145.053 I-0.75 J0
X87.75 Y145.053 I0.75 J0
G1 X87.73 Y145.128
X87.675 Y145.183
X87.6 Y145.203
X87.45 Y145.203
X87.375 Y145.203 Z-0.98
X87.32 Y145.203 Z-0.925
X87.3 Y145.203 Z-0.85
G0 Z10
Y144.903
Z5
G1 X87.3 Y144.903 Z1 F333
X87.3 Y144.903 Z-1.85
X87.32 Y144.903 Z-1.925 F1000
X87.375 Y144.903 Z-1.98
X87.45 Y144.903 Z-2
X87.6 Y144.903
X87.675 Y144.923
X87.73 Y144.978
X87.75 Y145.053
G3 X86.25 Y145.053 I-0.75 J0
X87.75 Y145.053 I0.75 J0
G1 X87.73 Y145.128
X87.675 Y145.183
X87.6 Y145.203
X87.45 Y145.203
X87.375 Y145.203 Z-1.98
X87.32 Y145.203 Z-1.925
X87.3 Y145.203 Z-1.85
G0 Z10
Y144.903
Z5
G1 X87.3 Y144.903 Z0 F333
X87.3 Y144.903 Z-2.85
X87.32 Y144.903 Z-2.925 F1000
X87.375 Y144.903 Z-2.98
X87.45 Y144.903 Z-3
X87.6 Y144.903
X87.675 Y144.923
X87.73 Y144.978
X87.75 Y145.053
G3 X86.25 Y145.053 I-0.75 J0
X87.75 Y145.053 I0.75 J0
G1 X87.73 Y145.128
X87.675 Y145.183
X87.6 Y145.203
X87.45 Y145.203
X87.375 Y145.203 Z-2.98
X87.32 Y145.203 Z-2.925
X87.3 Y145.203 Z-2.85
G0 Z10
X87.332 Y155.003
Z5
G1 X87.332 Y155.003 Z2 F333
X87.332 Y155.003 Z-0.85
X87.351 Y155.009 Z-0.925 F1000
X87.403 Y155.026 Z-0.98
X87.474 Y155.049 Z-1
X87.617 Y155.096
X87.682 Y155.138
X87.717 Y155.207
X87.713 Y155.285
G3 X86.287 Y154.821 I-0.713 J-0.232
X87.713 Y155.285 I0.713 J0.232
G1 X87.671 Y155.35
X87.602 Y155.385
X87.524 Y155.381
X87.382 Y155.335
X87.31 Y155.312 Z-0.98
X87.258 Y155.295 Z-0.925
X87.239 Y155.288 Z-0.85
G0 Z10
X87.332 Y155.003
Z5
G1 X87.332 Y155.003 Z1 F333
X87.332 Y155.003 Z-1.85
X87.351 Y155.009 Z-1.925 F1000
X87.403 Y155.026 Z-1.98
X87.474 Y155.049 Z-2
X87.617 Y155.096
X87.682 Y155.138
X87.717 Y155.207
X87.713 Y155.285
G3 X86.287 Y154.821 I-0.713 J-0.232
X87.713 Y155.285 I0.713 J0.232
G1 X87.671 Y155.35
X87.602 Y155.385
X87.524 Y155.381
X87.382 Y155.335
X87.31 Y155.312 Z-1.98
X87.258 Y155.295 Z-1.925
X87.239 Y155.288 Z-1.85
G0 Z10
X87.332 Y155.003
Z5
G1 X87.332 Y155.003 Z0 F333
X87.332 Y155.003 Z-2.85
X87.351 Y155.009 Z-2.925 F1000
X87.403 Y155.026 Z-2.98
X87.474 Y155.049 Z-3
X87.617 Y155.096
X87.682 Y155.138
X87.717 Y155.207
X87.713 Y155.285
G3 X86.287 Y154.821 I-0.713 J-0.232
X87.713 Y155.285 I0.713 J0.232
G1 X87.671 Y155.35
X87.602 Y155.385
X87.524 Y155.381
X87.382 Y155.335
X87.31 Y155.312 Z-2.98
X87.258 Y155.295 Z-2.925
X87.239 Y155.288 Z-2.85
G0 Z10
X71.3 Y154.903
Z5
G1 X71.3 Y154.903 Z2 F333
X71.3 Y154.903 Z-0.85
X71.32 Y154.903 Z-0.925 F1000
X71.375 Y154.903 Z-0.98
X71.45 Y154.903 Z-1
X71.6 Y154.903
X71.675 Y154.923
X71.73 Y154.978
X71.75 Y155.053
G3 X70.25 Y155.053 I-0.75 J0
X71.75 Y155.053 I0.75 J0
G1 X71.73 Y155.128
X71.675 Y155.183
X71.6 Y155.203
X71.45 Y155.203
X71.375 Y155.203 Z-0.98
X71.32 Y155.203 Z-0.925
X71.3 Y155.203 Z-0.85
G0 Z10
Y154.903
Z5
G1 X71.3 Y154.903 Z1 F333
X71.3 Y154.903 Z-1.85
X71.32 Y154.903 Z-1.925 F1000
X71.375 Y154.903 Z-1.98
X71.45 Y154.903 Z-2
X71.6 Y154.903
X71.675 Y154.923
X71.73 Y154.978
X71.75 Y155.053
G3 X70.25 Y155.053 I-0.75 J0
X71.75 Y155.053 I0.75 J0
G1 X71.73 Y155.128
X71.675 Y155.183
X71.6 Y155.203
X71.45 Y155.203
X71.375 Y155.203 Z-1.98
X71.32 Y155.203 Z-1.925
X71.3 Y155.203 Z-1.85
G0 Z10
Y154.903
Z5
G1 X71.3 Y154.903 Z0 F333
X71.3 Y154.903 Z-2.85
X71.32 Y154.903 Z-2.925 F1000
X71.375 Y154.903 Z-2.98
X71.45 Y154.903 Z-3
X71.6 Y154.903
X71.675 Y154.923
X71.73 Y154.978
X71.75 Y155.053
G3 X70.25 Y155.053 I-0.75 J0
X71.75 Y155.053 I0.75 J0
G1 X71.73 Y155.128
X71.675 Y155.183
X71.6 Y155.203
X71.45 Y155.203
X71.375 Y155.203 Z-2.98
X71.32 Y155.203 Z-2.925
X71.3 Y155.203 Z-2.85
G0 Z10
X65.05 Y150.85
Z5
G1 X65.05 Y150.85 Z2 F333
X65.05 Y150.85 Z-0.85
X65.07 Y150.85 Z-0.925 F1000
X65.125 Y150.85 Z-0.98
X65.2 Y150.85 Z-1
X65.35 Y150.85
X65.425 Y150.87
X65.48 Y150.925
X65.5 Y151
X65.462 Y151.191
X65.354 Y151.354
X65.191 Y151.462
X65 Y151.5
X64.809 Y151.462
X64.646 Y151.354
X64.538 Y151.191
X64.5 Y151
X64.538 Y150.809
X64.646 Y150.646
X64.809 Y150.538
X65 Y150.5
X65.191 Y150.538
X65.354 Y150.646
X65.462 Y150.809
X65.5 Y151
X65.48 Y151.075
X65.425 Y151.13
X65.35 Y151.15
X65.2 Y151.15
X65.125 Y151.15 Z-0.98
X65.07 Y151.15 Z-0.925
X65.05 Y151.15 Z-0.85
G0 Z10
Y150.85
Z5
G1 X65.05 Y150.85 Z1 F333
X65.05 Y150.85 Z-1.85
X65.07 Y150.85 Z-1.925 F1000
X65.125 Y150.85 Z-1.98
X65.2 Y150.85 Z-2
X65.35 Y150.85
X65.425 Y150.87
X65.48 Y150.925
X65.5 Y151
X65.462 Y151.191
X65.354 Y151.354
X65.191 Y151.462
X65 Y151.5
X64.809 Y151.462
X64.646 Y151.354
X64.538 Y151.191
X64.5 Y151
X64.538 Y150.809
X64.646 Y150.646
X64.809 Y150.538
X65 Y150.5
X65.191 Y150.538
X65.354 Y150.646
X65.462 Y150.809
X65.5 Y151
X65.48 Y151.075
X65.425 Y151.13
X65.35 Y151.15
X65.2 Y151.15
X65.125 Y151.15 Z-1.98
X65.07 Y151.15 Z-1.925
X65.05 Y151.15 Z-1.85
G0 Z10
Y150.85
Z5
G1 X65.05 Y150.85 Z0 F333
X65.05 Y150.85 Z-2.85
X65.07 Y150.85 Z-2.925 F1000
X65.125 Y150.85 Z-2.98
X65.2 Y150.85 Z-3
X65.35 Y150.85
X65.425 Y150.87
X65.48 Y150.925
X65.5 Y151
X65.462 Y151.191
X65.354 Y151.354
X65.191 Y151.462
X65 Y151.5
X64.809 Y151.462
X64.646 Y151.354
X64.538 Y151.191
X64.5 Y151
X64.538 Y150.809
X64.646 Y150.646
X64.809 Y150.538
X65 Y150.5
X65.191 Y150.538
X65.354 Y150.646
X65.462 Y150.809
X65.5 Y151
X65.48 Y151.075
X65.425 Y151.13
X65.35 Y151.15
X65.2 Y151.15
X65.125 Y151.15 Z-2.98
X65.07 Y151.15 Z-2.925
X65.05 Y151.15 Z-2.85
G0 Z10
X71.3 Y144.903
Z5
G1 X71.3 Y144.903 Z2 F333
X71.3 Y144.903 Z-0.85
X71.32 Y144.903 Z-0.925 F1000
X71.375 Y144.903 Z-0.98
X71.45 Y144.903 Z-1
X71.6 Y144.903
X71.675 Y144.923
X71.73 Y144.978
X71.75 Y145.053
G3 X70.25 Y145.053 I-0.75 J0
X71.75 Y145.053 I0.75 J0
G1 X71.73 Y145.128
X71.675 Y145.183
X71.6 Y145.203
X71.45 Y145.203
X71.375 Y145.203 Z-0.98
X71.32 Y145.203 Z-0.925
X71.3 Y145.203 Z-0.85
G0 Z10
Y144.903
Z5
G1 X71.3 Y144.903 Z1 F333
X71.3 Y144.903 Z-1.85
X71.32 Y144.903 Z-1.925 F1000
X71.375 Y144.903 Z-1.98
X71.45 Y144.903 Z-2
X71.6 Y144.903
X71.675 Y144.923
X71.73 Y144.978
X71.75 Y145.053
G3 X70.25 Y145.053 I-0.75 J0
X71.75 Y145.053 I0.75 J0
G1 X71.73 Y145.128
X71.675 Y145.183
X71.6 Y145.203
X71.45 Y145.203
X71.375 Y145.203 Z-1.98
X71.32 Y145.203 Z-1.925
X71.3 Y145.203 Z-1.85
G0 Z10
Y144.903
Z5
G1 X71.3 Y144.903 Z0 F333
X71.3 Y144.903 Z-2.85
X71.32 Y144.903 Z-2.925 F1000
X71.375 Y144.903 Z-2.98
X71.45 Y144.903 Z-3
X71.6 Y144.903
X71.675 Y144.923
X71.73 Y144.978
X71.75 Y145.053
G3 X70.25 Y145.053 I-0.75 J0
X71.75 Y145.053 I0.75 J0
G1 X71.73 Y145.128
X71.675 Y145.183
X71.6 Y145.203
X71.45 Y145.203
X71.375 Y145.203 Z-2.98
X71.32 Y145.203 Z-2.925
X71.3 Y145.203 Z-2.85
G0 Z10
X65.05 Y112.85
Z5
G1 X65.05 Y112.85 Z2 F333
X65.05 Y112.85 Z-0.85
X65.07 Y112.85 Z-0.925 F1000
X65.125 Y112.85 Z-0.98
X65.2 Y112.85 Z-1
X65.35 Y112.85
X65.425 Y112.87
X65.48 Y112.925
X65.5 Y113
X65.462 Y113.191
X65.354 Y113.354
X65.191 Y113.462
X65 Y113.5
X64.809 Y113.462
X64.646 Y113.354
X64.538 Y113.191
X64.5 Y113
X64.538 Y112.809
X64.646 Y112.646
X64.809 Y112.538
X65 Y112.5
X65.191 Y112.538
X65.354 Y112.646
X65.462 Y112.809
X65.5 Y113
X65.48 Y113.075
X65.425 Y113.13
X65.35 Y113.15
X65.2 Y113.15
X65.125 Y113.15 Z-0.98
X65.07 Y113.15 Z-0.925
X65.05 Y113.15 Z-0.85
G0 Z10
Y112.85
Z5
G1 X65.05 Y112.85 Z1 F333
X65.05 Y112.85 Z-1.85
X65.07 Y112.85 Z-1.925 F1000
X65.125 Y112.85 Z-1.98
X65.2 Y112.85 Z-2
X65.35 Y112.85
X65.425 Y112.87
X65.48 Y112.925
X65.5 Y113
X65.462 Y113.191
X65.354 Y113.354
X65.191 Y113.462
X65 Y113.5
X64.809 Y113.462
X64.646 Y113.354
X64.538 Y113.191
X64.5 Y113
X64.538 Y112.809
X64.646 Y112.646
X64.809 Y112.538
X65 Y112.5
X65.191 Y112.538
X65.354 Y112.646
X65.462 Y112.809
X65.5 Y113
X65.48 Y113.075
X65.425 Y113.13
X65.35 Y113.15
X65.2 Y113.15
X65.125 Y113.15 Z-1.98
X65.07 Y113.15 Z-1.925
X65.05 Y113.15 Z-1.85
G0 Z10
Y112.85
Z5
G1 X65.05 Y112.85 Z0 F333
X65.05 Y112.85 Z-2.85
X65.07 Y112.85 Z-2.925 F1000
X65.125 Y112.85 Z-2.98
X65.2 Y112.85 Z-3
X65.35 Y112.85
X65.425 Y112.87
X65.48 Y112.925
X65.5 Y113
X65.462 Y113.191
X65.354 Y113.354
X65.191 Y113.462
X65 Y113.5
X64.809 Y113.462
X64.646 Y113.354
X64.538 Y113.191
X64.5 Y113
X64.538 Y112.809
X64.646 Y112.646
X64.809 Y112.538
X65 Y112.5
X65.191 Y112.538
X65.354 Y112.646
X65.462 Y112.809
X65.5 Y113
X65.48 Y113.075
X65.425 Y113.13
X65.35 Y113.15
X65.2 Y113.15
X65.125 Y113.15 Z-2.98
X65.07 Y113.15 Z-2.925
X65.05 Y113.15 Z-2.85
G0 Z10
X53.033 Y93.356
Z5
G1 X53.033 Y93.356 Z2 F333
X53.033 Y93.356 Z-0.85
X53.053 Y93.356 Z-0.925 F1000
X53.108 Y93.356 Z-0.98
X53.183 Y93.356 Z-1
X53.333 Y93.356
X53.408 Y93.376
X53.463 Y93.431
X53.483 Y93.506
G3 X51.483 Y93.506 I-1 J0
X53.483 Y93.506 I1 J0
G1 X53.463 Y93.581
X53.408 Y93.636
X53.333 Y93.656
X53.183 Y93.656
X53.108 Y93.656 Z-0.98
X53.053 Y93.656 Z-0.925
X53.033 Y93.656 Z-0.85
G0 Z10
Y93.356
Z5
G1 X53.033 Y93.356 Z1 F333
X53.033 Y93.356 Z-1.85
X53.053 Y93.356 Z-1.925 F1000
X53.108 Y93.356 Z-1.98
X53.183 Y93.356 Z-2
X53.333 Y93.356
X53.408 Y93.376
X53.463 Y93.431
X53.483 Y93.506
G3 X51.483 Y93.506 I-1 J0
X53.483 Y93.506 I1 J0
G1 X53.463 Y93.581
X53.408 Y93.636
X53.333 Y93.656
X53.183 Y93.656
X53.108 Y93.656 Z-1.98
X53.053 Y93.656 Z-1.925
X53.033 Y93.656 Z-1.85
G0 Z10
Y93.356
Z5
G1 X53.033 Y93.356 Z0 F333
X53.033 Y93.356 Z-2.85
X53.053 Y93.356 Z-2.925 F1000
X53.108 Y93.356 Z-2.98
X53.183 Y93.356 Z-3
X53.333 Y93.356
X53.408 Y93.376
X53.463 Y93.431
X53.483 Y93.506
G3 X51.483 Y93.506 I-1 J0
X53.483 Y93.506 I1 J0
G1 X53.463 Y93.581
X53.408 Y93.636
X53.333 Y93.656
X53.183 Y93.656
X53.108 Y93.656 Z-2.98
X53.053 Y93.656 Z-2.925
X53.033 Y93.656 Z-2.85
G0 Z10
X39.7 Y92.25
Z5
G1 X39.7 Y92.25 Z2 F333
X39.7 Y92.25 Z-0.85
X39.72 Y92.256 Z-0.925 F1000
X39.772 Y92.273 Z-0.98
X39.843 Y92.296 Z-1
X39.986 Y92.342
X40.051 Y92.385
X40.086 Y92.454
X40.082 Y92.531
X39.976 Y92.74
X39.81 Y92.906
X39.601 Y93.013
X39.369 Y93.05
X39.137 Y93.013
X38.928 Y92.906
X38.762 Y92.74
X38.656 Y92.531
X38.619 Y92.3
X38.656 Y92.068
X38.762 Y91.859
X38.928 Y91.693
X39.137 Y91.586
X39.369 Y91.55
X39.601 Y91.586
X39.81 Y91.693
X39.976 Y91.859
X40.082 Y92.068
X40.119 Y92.3
X40.082 Y92.531
X40.04 Y92.596
X39.971 Y92.632
X39.893 Y92.628
X39.75 Y92.581
X39.679 Y92.558 Z-0.98
X39.627 Y92.541 Z-0.925
X39.608 Y92.535 Z-0.85
G0 Z10
X39.7 Y92.25
Z5
G1 X39.7 Y92.25 Z1 F333
X39.7 Y92.25 Z-1.85
X39.72 Y92.256 Z-1.925 F1000
X39.772 Y92.273 Z-1.98
X39.843 Y92.296 Z-2
X39.986 Y92.342
X40.051 Y92.385
X40.086 Y92.454
X40.082 Y92.531
X39.976 Y92.74
X39.81 Y92.906
X39.601 Y93.013
X39.369 Y93.05
X39.137 Y93.013
X38.928 Y92.906
X38.762 Y92.74
X38.656 Y92.531
X38.619 Y92.3
X38.656 Y92.068
X38.762 Y91.859
X38.928 Y91.693
X39.137 Y91.586
X39.369 Y91.55
X39.601 Y91.586
X39.81 Y91.693
X39.976 Y91.859
X40.082 Y92.068
X40.119 Y92.3
X40.082 Y92.531
X40.04 Y92.596
X39.971 Y92.632
X39.893 Y92.628
X39.75 Y92.581
X39.679 Y92.558 Z-1.98
X39.627 Y92.541 Z-1.925
X39.608 Y92.535 Z-1.85
G0 Z10
X39.7 Y92.25
Z5
G1 X39.7 Y92.25 Z0 F333
X39.7 Y92.25 Z-2.85
X39.72 Y92.256 Z-2.925 F1000
X39.772 Y92.273 Z-2.98
X39.843 Y92.296 Z-3
X39.986 Y92.342
X40.051 Y92.385
X40.086 Y92.454
X40.082 Y92.531
X39.976 Y92.74
X39.81 Y92.906
X39.601 Y93.013
X39.369 Y93.05
X39.137 Y93.013
X38.928 Y92.906
X38.762 Y92.74
X38.656 Y92.531
X38.619 Y92.3
X38.656 Y92.068
X38.762 Y91.859
X38.928 Y91.693
X39.137 Y91.586
X39.369 Y91.55
X39.601 Y91.586
X39.81 Y91.693
X39.976 Y91.859
X40.082 Y92.068
X40.119 Y92.3
X40.082 Y92.531
X40.04 Y92.596
X39.971 Y92.632
X39.893 Y92.628
X39.75 Y92.581
X39.679 Y92.558 Z-2.98
X39.627 Y92.541 Z-2.925
X39.608 Y92.535 Z-2.85
G0 Z10
X27.114 Y112.89
Z5
G1 X27.114 Y112.89 Z2 F333
X27.114 Y112.89 Z-0.85
X27.132 Y112.9 Z-0.925 F1000
X27.18 Y112.925 Z-0.98
X27.247 Y112.96 Z-1
X27.38 Y113.03
X27.437 Y113.082
X27.46 Y113.157
X27.443 Y113.232
X27.32 Y113.384
X27.149 Y113.477
X26.955 Y113.498
X26.768 Y113.443
X26.616 Y113.32
X26.523 Y113.149
X26.502 Y112.955
X26.557 Y112.768
X26.68 Y112.616
X26.851 Y112.523
X27.045 Y112.502
X27.232 Y112.557
X27.384 Y112.68
X27.477 Y112.851
X27.498 Y113.045
X27.443 Y113.232
X27.39 Y113.289
X27.316 Y113.313
X27.24 Y113.295
X27.107 Y113.226
X27.041 Y113.191 Z-0.98
X26.992 Y113.165 Z-0.925
X26.975 Y113.156 Z-0.85
G0 Z10
X27.114 Y112.89
Z5
G1 X27.114 Y112.89 Z1 F333
X27.114 Y112.89 Z-1.85
X27.132 Y112.9 Z-1.925 F1000
X27.18 Y112.925 Z-1.98
X27.247 Y112.96 Z-2
X27.38 Y113.03
X27.437 Y113.082
X27.46 Y113.157
X27.443 Y113.232
X27.32 Y113.384
X27.149 Y113.477
X26.955 Y113.498
X26.768 Y113.443
X26.616 Y113.32
X26.523 Y113.149
X26.502 Y112.955
X26.557 Y112.768
X26.68 Y112.616
X26.851 Y112.523
X27.045 Y112.502
X27.232 Y112.557
X27.384 Y112.68
X27.477 Y112.851
X27.498 Y113.045
X27.443 Y113.232
X27.39 Y113.289
X27.316 Y113.313
X27.24 Y113.295
X27.107 Y113.226
X27.041 Y113.191 Z-1.98
X26.992 Y113.165 Z-1.925
X26.975 Y113.156 Z-1.85
G0 Z10
X27.114 Y112.89
Z5
G1 X27.114 Y112.89 Z0 F333
X27.114 Y112.89 Z-2.85
X27.132 Y112.9 Z-2.925 F1000
X27.18 Y112.925 Z-2.98
X27.247 Y112.96 Z-3
X27.38 Y113.03
X27.437 Y113.082
X27.46 Y113.157
X27.443 Y113.232
X27.32 Y113.384
X27.149 Y113.477
X26.955 Y113.498
X26.768 Y113.443
X26.616 Y113.32
X26.523 Y113.149
X26.502 Y112.955
X26.557 Y112.768
X26.68 Y112.616
X26.851 Y112.523
X27.045 Y112.502
X27.232 Y112.557
X27.384 Y112.68
X27.477 Y112.851
X27.498 Y113.045
X27.443 Y113.232
X27.39 Y113.289
X27.316 Y113.313
X27.24 Y113.295
X27.107 Y113.226
X27.041 Y113.191 Z-2.98
X26.992 Y113.165 Z-2.925
X26.975 Y113.156 Z-2.85
G0 Z10
X9.63 Y91.99
Z5
G1 X9.63 Y91.99 Z2 F333
X9.63 Y91.99 Z-0.85
X9.632 Y91.97 Z-0.925 F1000
X9.635 Y91.915 Z-0.98
X9.64 Y91.841 Z-1
X9.65 Y91.691
X9.675 Y91.617
X9.734 Y91.566
X9.81 Y91.551
G3 X10.51 Y92.3 I-0.05 J0.748
X9.01 Y92.3 I-0.75 J0
X9.81 Y91.551 I0.75 J0
G1 X9.883 Y91.576
X9.934 Y91.635
X9.95 Y91.711
X9.94 Y91.861
X9.935 Y91.935 Z-0.98
X9.931 Y91.99 Z-0.925
X9.93 Y92.01 Z-0.85
G0 Z10
X9.63 Y91.99
Z5
G1 X9.63 Y91.99 Z1 F333
X9.63 Y91.99 Z-1.85
X9.632 Y91.97 Z-1.925 F1000
X9.635 Y91.915 Z-1.98
X9.64 Y91.841 Z-2
X9.65 Y91.691
X9.675 Y91.617
X9.734 Y91.566
X9.81 Y91.551
G3 X10.51 Y92.3 I-0.05 J0.748
X9.01 Y92.3 I-0.75 J0
X9.81 Y91.551 I0.75 J0
G1 X9.883 Y91.576
X9.934 Y91.635
X9.95 Y91.711
X9.94 Y91.861
X9.935 Y91.935 Z-1.98
X9.931 Y91.99 Z-1.925
X9.93 Y92.01 Z-1.85
G0 Z10
X9.63 Y91.99
Z5
G1 X9.63 Y91.99 Z0 F333
X9.63 Y91.99 Z-2.85
X9.632 Y91.97 Z-2.925 F1000
X9.635 Y91.915 Z-2.98
X9.64 Y91.841 Z-3
X9.65 Y91.691
X9.675 Y91.617
X9.734 Y91.566
X9.81 Y91.551
G3 X10.51 Y92.3 I-0.05 J0.748
X9.01 Y92.3 I-0.75 J0
X9.81 Y91.551 I0.75 J0
G1 X9.883 Y91.576
X9.934 Y91.635
X9.95 Y91.711
X9.94 Y91.861
X9.935 Y91.935 Z-2.98
X9.931 Y91.99 Z-2.925
X9.93 Y92.01 Z-2.85
G0 Z10
X9.63 Y67.392
Z5
G1 X9.63 Y67.392 Z2 F333
X9.63 Y67.392 Z-0.85
X9.632 Y67.372 Z-0.925 F1000
X9.635 Y67.317 Z-0.98
X9.64 Y67.242 Z-1
X9.65 Y67.093
X9.675 Y67.019
X9.734 Y66.968
X9.81 Y66.953
G3 X10.51 Y67.701 I-0.05 J0.748
X9.01 Y67.701 I-0.75 J0
X9.81 Y66.953 I0.75 J0
G1 X9.883 Y66.978
X9.935 Y67.036
X9.95 Y67.113
X9.94 Y67.262
X9.935 Y67.337 Z-0.98
X9.931 Y67.392 Z-0.925
X9.93 Y67.412 Z-0.85
G0 Z10
X9.63 Y67.392
Z5
G1 X9.63 Y67.392 Z1 F333
X9.63 Y67.392 Z-1.85
X9.632 Y67.372 Z-1.925 F1000
X9.635 Y67.317 Z-1.98
X9.64 Y67.242 Z-2
X9.65 Y67.093
X9.675 Y67.019
X9.734 Y66.968
X9.81 Y66.953
G3 X10.51 Y67.701 I-0.05 J0.748
X9.01 Y67.701 I-0.75 J0
X9.81 Y66.953 I0.75 J0
G1 X9.883 Y66.978
X9.935 Y67.036
X9.95 Y67.113
X9.94 Y67.262
X9.935 Y67.337 Z-1.98
X9.931 Y67.392 Z-1.925
X9.93 Y67.412 Z-1.85
G0 Z10
X9.63 Y67.392
Z5
G1 X9.63 Y67.392 Z0 F333
X9.63 Y67.392 Z-2.85
X9.632 Y67.372 Z-2.925 F1000
X9.635 Y67.317 Z-2.98
X9.64 Y67.242 Z-3
X9.65 Y67.093
X9.675 Y67.019
X9.734 Y66.968
X9.81 Y66.953
G3 X10.51 Y67.701 I-0.05 J0.748
X9.01 Y67.701 I-0.75 J0
X9.81 Y66.953 I0.75 J0
G1 X9.883 Y66.978
X9.935 Y67.036
X9.95 Y67.113
X9.94 Y67.262
X9.935 Y67.337 Z-2.98
X9.931 Y67.392 Z-2.925
X9.93 Y67.412 Z-2.85
G0 Z10
X10.332 Y55.75
Z5
G1 X10.332 Y55.75 Z2 F333
X10.332 Y55.75 Z-0.85
X10.351 Y55.756 Z-0.925 F1000
X10.403 Y55.773 Z-0.98
X10.474 Y55.796 Z-1
X10.617 Y55.843
X10.682 Y55.885
X10.717 Y55.954
X10.713 Y56.032
X10.607 Y56.241
X10.441 Y56.407
X10.232 Y56.513
X10 Y56.55
X9.768 Y56.513
X9.559 Y56.407
X9.393 Y56.241
X9.287 Y56.032
X9.25 Y55.8
X9.287 Y55.568
X9.393 Y55.359
X9.559 Y55.193
X9.768 Y55.087
X10 Y55.05
X10.232 Y55.087
X10.441 Y55.193
X10.607 Y55.359
X10.713 Y55.568
X10.75 Y55.8
X10.713 Y56.032
X10.671 Y56.097
X10.602 Y56.132
X10.524 Y56.128
X10.382 Y56.082
X10.31 Y56.059 Z-0.98
X10.258 Y56.042 Z-0.925
X10.239 Y56.035 Z-0.85
G0 Z10
X10.332 Y55.75
Z5
G1 X10.332 Y55.75 Z1 F333
X10.332 Y55.75 Z-1.85
X10.351 Y55.756 Z-1.925 F1000
X10.403 Y55.773 Z-1.98
X10.474 Y55.796 Z-2
X10.617 Y55.843
X10.682 Y55.885
X10.717 Y55.954
X10.713 Y56.032
X10.607 Y56.241
X10.441 Y56.407
X10.232 Y56.513
X10 Y56.55
X9.768 Y56.513
X9.559 Y56.407
X9.393 Y56.241
X9.287 Y56.032
X9.25 Y55.8
X9.287 Y55.568
X9.393 Y55.359
X9.559 Y55.193
X9.768 Y55.087
X10 Y55.05
X10.232 Y55.087
X10.441 Y55.193
X10.607 Y55.359
X10.713 Y55.568
X10.75 Y55.8
X10.713 Y56.032
X10.671 Y56.097
X10.602 Y56.132
X10.524 Y56.128
X10.382 Y56.082
X10.31 Y56.059 Z-1.98
X10.258 Y56.042 Z-1.925
X10.239 Y56.035 Z-1.85
G0 Z10
X10.332 Y55.75
Z5
G1 X10.332 Y55.75 Z0 F333
X10.332 Y55.75 Z-2.85
X10.351 Y55.756 Z-2.925 F1000
X10.403 Y55.773 Z-2.98
X10.474 Y55.796 Z-3
X10.617 Y55.843
X10.682 Y55.885
X10.717 Y55.954
X10.713 Y56.032
X10.607 Y56.241
X10.441 Y56.407
X10.232 Y56.513
X10 Y56.55
X9.768 Y56.513
X9.559 Y56.407
X9.393 Y56.241
X9.287 Y56.032
X9.25 Y55.8
X9.287 Y55.568
X9.393 Y55.359
X9.559 Y55.193
X9.768 Y55.087
X10 Y55.05
X10.232 Y55.087
X10.441 Y55.193
X10.607 Y55.359
X10.713 Y55.568
X10.75 Y55.8
X10.713 Y56.032
X10.671 Y56.097
X10.602 Y56.132
X10.524 Y56.128
X10.382 Y56.082
X10.31 Y56.059 Z-2.98
X10.258 Y56.042 Z-2.925
X10.239 Y56.035 Z-2.85
G0 Z10
X29 Y44.6
Z5
G1 X29 Y44.6 Z2 F333
X29 Y44.6 Z-0.85
X29.02 Y44.6 Z-0.925 F1000
X29.075 Y44.6 Z-0.98
X29.15 Y44.6 Z-1
X29.3 Y44.6
X29.375 Y44.62
X29.43 Y44.675
X29.45 Y44.75
X29.45 Y46.5
X25.95 Y46.5
X25.95 Y33.8
X29.45 Y33.8
X29.45 Y44.75
X29.43 Y44.825
X29.375 Y44.88
X29.3 Y44.9
X29.15 Y44.9
X29.075 Y44.9 Z-0.98
X29.02 Y44.9 Z-0.925
X29 Y44.9 Z-0.85
G0 Z10
Y44.6
Z5
G1 X29 Y44.6 Z1 F333
X29 Y44.6 Z-1.85
X29.02 Y44.6 Z-1.925 F1000
X29.075 Y44.6 Z-1.98
X29.15 Y44.6 Z-2
X29.3 Y44.6
X29.375 Y44.62
X29.43 Y44.675
X29.45 Y44.75
X29.45 Y46.5
X25.95 Y46.5
X25.95 Y33.8
X29.45 Y33.8
X29.45 Y44.75
X29.43 Y44.825
X29.375 Y44.88
X29.3 Y44.9
X29.15 Y44.9
X29.075 Y44.9 Z-1.98
X29.02 Y44.9 Z-1.925
X29 Y44.9 Z-1.85
G0 Z10
Y44.6
Z5
G1 X29 Y44.6 Z0 F333
X29 Y44.6 Z-2.85
X29.02 Y44.6 Z-2.925 F1000
X29.075 Y44.6 Z-2.98
X29.15 Y44.6 Z-3
X29.3 Y44.6
X29.375 Y44.62
X29.43 Y44.675
X29.45 Y44.75
X29.45 Y46.5
X26.85 Y46.5
X26.85 Y46.5 Z-2.625
X25.95 Y46.5
X25.95 Y44.35
X25.95 Y44.35 Z-3 F333
X25.95 Y34.7 F1000
X25.95 Y34.7 Z-2.625
X25.95 Y33.8
X26.7 Y33.8
X26.7 Y33.8 Z-3 F333
X29.45 Y33.8 F1000
X29.45 Y39.35
X29.45 Y39.35 Z-2.625
X29.45 Y42.35
X29.45 Y42.35 Z-3 F333
X29.45 Y44.75 F1000
X29.43 Y44.825
X29.375 Y44.88
X29.3 Y44.9
X29.15 Y44.9
X29.075 Y44.9 Z-2.98
X29.02 Y44.9 Z-2.925
X29 Y44.9 Z-2.85
G0 Z10
X30.888 Y55.65
Z5
G1 X30.888 Y55.65 Z2 F333
X30.888 Y55.65 Z-0.85
X30.908 Y55.65 Z-0.925 F1000
X30.963 Y55.65 Z-0.98
X31.038 Y55.65 Z-1
X31.188 Y55.65
X31.263 Y55.67
X31.318 Y55.725
X31.338 Y55.8
G3 X29.838 Y55.8 I-0.75 J0
X31.338 Y55.8 I0.75 J0
G1 X31.318 Y55.875
X31.263 Y55.93
X31.188 Y55.95
X31.038 Y55.95
X30.963 Y55.95 Z-0.98
X30.908 Y55.95 Z-0.925
X30.888 Y55.95 Z-0.85
G0 Z10
Y55.65
Z5
G1 X30.888 Y55.65 Z1 F333
X30.888 Y55.65 Z-1.85
X30.908 Y55.65 Z-1.925 F1000
X30.963 Y55.65 Z-1.98
X31.038 Y55.65 Z-2
X31.188 Y55.65
X31.263 Y55.67
X31.318 Y55.725
X31.338 Y55.8
G3 X29.838 Y55.8 I-0.75 J0
X31.338 Y55.8 I0.75 J0
G1 X31.318 Y55.875
X31.263 Y55.93
X31.188 Y55.95
X31.038 Y55.95
X30.963 Y55.95 Z-1.98
X30.908 Y55.95 Z-1.925
X30.888 Y55.95 Z-1.85
G0 Z10
Y55.65
Z5
G1 X30.888 Y55.65 Z0 F333
X30.888 Y55.65 Z-2.85
X30.908 Y55.65 Z-2.925 F1000
X30.963 Y55.65 Z-2.98
X31.038 Y55.65 Z-3
X31.188 Y55.65
X31.263 Y55.67
X31.318 Y55.725
X31.338 Y55.8
G3 X29.838 Y55.8 I-0.75 J0
X31.338 Y55.8 I0.75 J0
G1 X31.318 Y55.875
X31.263 Y55.93
X31.188 Y55.95
X31.038 Y55.95
X30.963 Y55.95 Z-2.98
X30.908 Y55.95 Z-2.925
X30.888 Y55.95 Z-2.85
G0 Z10
X39.7 Y67.651
Z5
G1 X39.7 Y67.651 Z2 F333
X39.7 Y67.651 Z-0.85
X39.72 Y67.658 Z-0.925 F1000
X39.772 Y67.675 Z-0.98
X39.843 Y67.698 Z-1
X39.986 Y67.744
X40.051 Y67.786
X40.086 Y67.856
X40.082 Y67.933
X39.976 Y68.142
X39.81 Y68.308
X39.601 Y68.415
X39.369 Y68.451
X39.137 Y68.415
X38.928 Y68.308
X38.762 Y68.142
X38.656 Y67.933
X38.619 Y67.701
X38.656 Y67.47
X38.762 Y67.26
X38.928 Y67.095
X39.137 Y66.988
X39.369 Y66.951
X39.601 Y66.988
X39.81 Y67.095
X39.976 Y67.26
X40.082 Y67.47
X40.119 Y67.701
X40.082 Y67.933
X40.04 Y67.998
X39.971 Y68.033
X39.893 Y68.029
X39.75 Y67.983
X39.679 Y67.96 Z-0.98
X39.627 Y67.943 Z-0.925
X39.608 Y67.937 Z-0.85
G0 Z10
X39.7 Y67.651
Z5
G1 X39.7 Y67.651 Z1 F333
X39.7 Y67.651 Z-1.85
X39.72 Y67.658 Z-1.925 F1000
X39.772 Y67.675 Z-1.98
X39.843 Y67.698 Z-2
X39.986 Y67.744
X40.051 Y67.786
X40.086 Y67.856
X40.082 Y67.933
X39.976 Y68.142
X39.81 Y68.308
X39.601 Y68.415
X39.369 Y68.451
X39.137 Y68.415
X38.928 Y68.308
X38.762 Y68.142
X38.656 Y67.933
X38.619 Y67.701
X38.656 Y67.47
X38.762 Y67.26
X38.928 Y67.095
X39.137 Y66.988
X39.369 Y66.951
X39.601 Y66.988
X39.81 Y67.095
X39.976 Y67.26
X40.082 Y67.47
X40.119 Y67.701
X40.082 Y67.933
X40.04 Y67.998
X39.971 Y68.033
X39.893 Y68.029
X39.75 Y67.983
X39.679 Y67.96 Z-1.98
X39.627 Y67.943 Z-1.925
X39.608 Y67.937 Z-1.85
G0 Z10
X39.7 Y67.651
Z5
G1 X39.7 Y67.651 Z0 F333
X39.7 Y67.651 Z-2.85
X39.72 Y67.658 Z-2.925 F1000
X39.772 Y67.675 Z-2.98
X39.843 Y67.698 Z-3
X39.986 Y67.744
X40.051 Y67.786
X40.086 Y67.856
X40.082 Y67.933
X39.976 Y68.142
X39.81 Y68.308
X39.601 Y68.415
X39.369 Y68.451
X39.137 Y68.415
X38.928 Y68.308
X38.762 Y68.142
X38.656 Y67.933
X38.619 Y67.701
X38.656 Y67.47
X38.762 Y67.26
X38.928 Y67.095
X39.137 Y66.988
X39.369 Y66.951
X39.601 Y66.988
X39.81 Y67.095
X39.976 Y67.26
X40.082 Y67.47
X40.119 Y67.701
X40.082 Y67.933
X40.04 Y67.998
X39.971 Y68.033
X39.893 Y68.029
X39.75 Y67.983
X39.679 Y67.96 Z-2.98
X39.627 Y67.943 Z-2.925
X39.608 Y67.937 Z-2.85
G0 Z10
X53.033 Y65.416
Z5
G1 X53.033 Y65.416 Z2 F333
X53.033 Y65.416 Z-0.85
X53.053 Y65.416 Z-0.925 F1000
X53.108 Y65.416 Z-0.98
X53.183 Y65.416 Z-1
X53.333 Y65.416
X53.408 Y65.436
X53.463 Y65.491
X53.483 Y65.566
G3 X51.483 Y65.566 I-1 J0
X53.483 Y65.566 I1 J0
G1 X53.463 Y65.641
X53.408 Y65.696
X53.333 Y65.716
X53.183 Y65.716
X53.108 Y65.716 Z-0.98
X53.053 Y65.716 Z-0.925
X53.033 Y65.716 Z-0.85
G0 Z10
Y65.416
Z5
G1 X53.033 Y65.416 Z1 F333
X53.033 Y65.416 Z-1.85
X53.053 Y65.416 Z-1.925 F1000
X53.108 Y65.416 Z-1.98
X53.183 Y65.416 Z-2
X53.333 Y65.416
X53.408 Y65.436
X53.463 Y65.491
X53.483 Y65.566
G3 X51.483 Y65.566 I-1 J0
X53.483 Y65.566 I1 J0
G1 X53.463 Y65.641
X53.408 Y65.696
X53.333 Y65.716
X53.183 Y65.716
X53.108 Y65.716 Z-1.98
X53.053 Y65.716 Z-1.925
X53.033 Y65.716 Z-1.85
G0 Z10
Y65.416
Z5
G1 X53.033 Y65.416 Z0 F333
X53.033 Y65.416 Z-2.85
X53.053 Y65.416 Z-2.925 F1000
X53.108 Y65.416 Z-2.98
X53.183 Y65.416 Z-3
X53.333 Y65.416
X53.408 Y65.436
X53.463 Y65.491
X53.483 Y65.566
G3 X51.483 Y65.566 I-1 J0
X53.483 Y65.566 I1 J0
G1 X53.463 Y65.641
X53.408 Y65.696
X53.333 Y65.716
X53.183 Y65.716
X53.108 Y65.716 Z-2.98
X53.053 Y65.716 Z-2.925
X53.033 Y65.716 Z-2.85
G0 Z10
X30.888 Y24.35
Z5
G1 X30.888 Y24.35 Z2 F333
X30.888 Y24.35 Z-0.85
X30.908 Y24.35 Z-0.925 F1000
X30.963 Y24.35 Z-0.98
X31.038 Y24.35 Z-1
X31.188 Y24.35
X31.263 Y24.37
X31.318 Y24.425
X31.338 Y24.5
G3 X29.838 Y24.5 I-0.75 J0
X31.338 Y24.5 I0.75 J0
G1 X31.318 Y24.575
X31.263 Y24.63
X31.188 Y24.65
X31.038 Y24.65
X30.963 Y24.65 Z-0.98
X30.908 Y24.65 Z-0.925
X30.888 Y24.65 Z-0.85
G0 Z10
Y24.35
Z5
G1 X30.888 Y24.35 Z1 F333
X30.888 Y24.35 Z-1.85
X30.908 Y24.35 Z-1.925 F1000
X30.963 Y24.35 Z-1.98
X31.038 Y24.35 Z-2
X31.188 Y24.35
X31.263 Y24.37
X31.318 Y24.425
X31.338 Y24.5
G3 X29.838 Y24.5 I-0.75 J0
X31.338 Y24.5 I0.75 J0
G1 X31.318 Y24.575
X31.263 Y24.63
X31.188 Y24.65
X31.038 Y24.65
X30.963 Y24.65 Z-1.98
X30.908 Y24.65 Z-1.925
X30.888 Y24.65 Z-1.85
G0 Z10
Y24.35
Z5
G1 X30.888 Y24.35 Z0 F333
X30.888 Y24.35 Z-2.85
X30.908 Y24.35 Z-2.925 F1000
X30.963 Y24.35 Z-2.98
X31.038 Y24.35 Z-3
X31.188 Y24.35
X31.263 Y24.37
X31.318 Y24.425
X31.338 Y24.5
G3 X29.838 Y24.5 I-0.75 J0
X31.338 Y24.5 I0.75 J0
G1 X31.318 Y24.575
X31.263 Y24.63
X31.188 Y24.65
X31.038 Y24.65
X30.963 Y24.65 Z-2.98
X30.908 Y24.65 Z-2.925
X30.888 Y24.65 Z-2.85
G0 Z10
X19.3 Y14.797
Z5
G1 X19.3 Y14.797 Z2 F333
X19.3 Y14.797 Z-0.85
X19.32 Y14.797 Z-0.925 F1000
X19.375 Y14.797 Z-0.98
X19.45 Y14.797 Z-1
X19.6 Y14.797
X19.675 Y14.818
X19.73 Y14.873
X19.75 Y14.948
G3 X18.25 Y14.948 I-0.75 J0
X19.75 Y14.948 I0.75 J0
G1 X19.73 Y15.023
X19.675 Y15.077
X19.6 Y15.097
X19.45 Y15.097
X19.375 Y15.097 Z-0.98
X19.32 Y15.097 Z-0.925
X19.3 Y15.097 Z-0.85
G0 Z10
Y14.797
Z5
G1 X19.3 Y14.797 Z1 F333
X19.3 Y14.797 Z-1.85
X19.32 Y14.797 Z-1.925 F1000
X19.375 Y14.797 Z-1.98
X19.45 Y14.797 Z-2
X19.6 Y14.797
X19.675 Y14.818
X19.73 Y14.873
X19.75 Y14.948
G3 X18.25 Y14.948 I-0.75 J0
X19.75 Y14.948 I0.75 J0
G1 X19.73 Y15.023
X19.675 Y15.077
X19.6 Y15.097
X19.45 Y15.097
X19.375 Y15.097 Z-1.98
X19.32 Y15.097 Z-1.925
X19.3 Y15.097 Z-1.85
G0 Z10
Y14.797
Z5
G1 X19.3 Y14.797 Z0 F333
X19.3 Y14.797 Z-2.85
X19.32 Y14.797 Z-2.925 F1000
X19.375 Y14.797 Z-2.98
X19.45 Y14.797 Z-3
X19.6 Y14.797
X19.675 Y14.818
X19.73 Y14.873
X19.75 Y14.948
G3 X18.25 Y14.948 I-0.75 J0
X19.75 Y14.948 I0.75 J0
G1 X19.73 Y15.023
X19.675 Y15.077
X19.6 Y15.097
X19.45 Y15.097
X19.375 Y15.097 Z-2.98
X19.32 Y15.097 Z-2.925
X19.3 Y15.097 Z-2.85
G0 Z10
Y4.797
Z5
G1 X19.3 Y4.797 Z2 F333
X19.3 Y4.797 Z-0.85
X19.32 Y4.797 Z-0.925 F1000
X19.375 Y4.797 Z-0.98
X19.45 Y4.797 Z-1
X19.6 Y4.797
X19.675 Y4.818
X19.73 Y4.872
X19.75 Y4.947
G3 X18.25 Y4.947 I-0.75 J0
X19.75 Y4.947 I0.75 J0
G1 X19.73 Y5.022
X19.675 Y5.077
X19.6 Y5.097
X19.45 Y5.097
X19.375 Y5.097 Z-0.98
X19.32 Y5.097 Z-0.925
X19.3 Y5.097 Z-0.85
G0 Z10
Y4.797
Z5
G1 X19.3 Y4.797 Z1 F333
X19.3 Y4.797 Z-1.85
X19.32 Y4.797 Z-1.925 F1000
X19.375 Y4.797 Z-1.98
X19.45 Y4.797 Z-2
X19.6 Y4.797
X19.675 Y4.818
X19.73 Y4.872
X19.75 Y4.947
G3 X18.25 Y4.947 I-0.75 J0
X19.75 Y4.947 I0.75 J0
G1 X19.73 Y5.022
X19.675 Y5.077
X19.6 Y5.097
X19.45 Y5.097
X19.375 Y5.097 Z-1.98
X19.32 Y5.097 Z-1.925
X19.3 Y5.097 Z-1.85
G0 Z10
Y4.797
Z5
G1 X19.3 Y4.797 Z0 F333
X19.3 Y4.797 Z-2.85
X19.32 Y4.797 Z-2.925 F1000
X19.375 Y4.797 Z-2.98
X19.45 Y4.797 Z-3
X19.6 Y4.797
X19.675 Y4.818
X19.73 Y4.872
X19.75 Y4.947
G3 X18.25 Y4.947 I-0.75 J0
X19.75 Y4.947 I0.75 J0
G1 X19.73 Y5.022
X19.675 Y5.077
X19.6 Y5.097
X19.45 Y5.097
X19.375 Y5.097 Z-2.98
X19.32 Y5.097 Z-2.925
X19.3 Y5.097 Z-2.85
G0 Z10
X3.3 Y4.797
Z5
G1 X3.3 Y4.797 Z2 F333
X3.3 Y4.797 Z-0.85
X3.32 Y4.797 Z-0.925 F1000
X3.375 Y4.797 Z-0.98
X3.45 Y4.797 Z-1
X3.6 Y4.797
X3.675 Y4.818
X3.73 Y4.872
X3.75 Y4.947
G3 X2.25 Y4.947 I-0.75 J0
X3.75 Y4.947 I0.75 J0
G1 X3.73 Y5.022
X3.675 Y5.077
X3.6 Y5.097
X3.45 Y5.097
X3.375 Y5.097 Z-0.98
X3.32 Y5.097 Z-0.925
X3.3 Y5.097 Z-0.85
G0 Z10
Y4.797
Z5
G1 X3.3 Y4.797 Z1 F333
X3.3 Y4.797 Z-1.85
X3.32 Y4.797 Z-1.925 F1000
X3.375 Y4.797 Z-1.98
X3.45 Y4.797 Z-2
X3.6 Y4.797
X3.675 Y4.818
X3.73 Y4.872
X3.75 Y4.947
G3 X2.25 Y4.947 I-0.75 J0
X3.75 Y4.947 I0.75 J0
G1 X3.73 Y5.022
X3.675 Y5.077
X3.6 Y5.097
X3.45 Y5.097
X3.375 Y5.097 Z-1.98
X3.32 Y5.097 Z-1.925
X3.3 Y5.097 Z-1.85
G0 Z10
Y4.797
Z5
G1 X3.3 Y4.797 Z0 F333
X3.3 Y4.797 Z-2.85
X3.32 Y4.797 Z-2.925 F1000
X3.375 Y4.797 Z-2.98
X3.45 Y4.797 Z-3
X3.6 Y4.797
X3.675 Y4.818
X3.73 Y4.872
X3.75 Y4.947
G3 X2.25 Y4.947 I-0.75 J0
X3.75 Y4.947 I0.75 J0
G1 X3.73 Y5.022
X3.675 Y5.077
X3.6 Y5.097
X3.45 Y5.097
X3.375 Y5.097 Z-2.98
X3.32 Y5.097 Z-2.925
X3.3 Y5.097 Z-2.85
G0 Z10
X3.332 Y14.898
Z5
G1 X3.332 Y14.898 Z2 F333
X3.332 Y14.898 Z-0.85
X3.351 Y14.904 Z-0.925 F1000
X3.403 Y14.921 Z-0.98
X3.474 Y14.944 Z-1
X3.617 Y14.99
X3.682 Y15.033
X3.717 Y15.102
X3.713 Y15.179
G3 X2.287 Y14.716 I-0.713 J-0.232
X3.713 Y15.179 I0.713 J0.232
G1 X3.671 Y15.244
X3.602 Y15.28
X3.524 Y15.276
X3.382 Y15.229
X3.31 Y15.206 Z-0.98
X3.258 Y15.189 Z-0.925
X3.239 Y15.183 Z-0.85
G0 Z10
X3.332 Y14.898
Z5
G1 X3.332 Y14.898 Z1 F333
X3.332 Y14.898 Z-1.85
X3.351 Y14.904 Z-1.925 F1000
X3.403 Y14.921 Z-1.98
X3.474 Y14.944 Z-2
X3.617 Y14.99
X3.682 Y15.033
X3.717 Y15.102
X3.713 Y15.179
G3 X2.287 Y14.716 I-0.713 J-0.232
X3.713 Y15.179 I0.713 J0.232
G1 X3.671 Y15.244
X3.602 Y15.28
X3.524 Y15.276
X3.382 Y15.229
X3.31 Y15.206 Z-1.98
X3.258 Y15.189 Z-1.925
X3.239 Y15.183 Z-1.85
G0 Z10
X3.332 Y14.898
Z5
G1 X3.332 Y14.898 Z0 F333
X3.332 Y14.898 Z-2.85
X3.351 Y14.904 Z-2.925 F1000
X3.403 Y14.921 Z-2.98
X3.474 Y14.944 Z-3
X3.617 Y14.99
X3.682 Y15.033
X3.717 Y15.102
X3.713 Y15.179
G3 X2.287 Y14.716 I-0.713 J-0.232
X3.713 Y15.179 I0.713 J0.232
G1 X3.671 Y15.244
X3.602 Y15.28
X3.524 Y15.276
X3.382 Y15.229
X3.31 Y15.206 Z-2.98
X3.258 Y15.189 Z-2.925
X3.239 Y15.183 Z-2.85
G0 Z10
X10.3 Y24.35
Z5
G1 X10.3 Y24.35 Z2 F333
X10.3 Y24.35 Z-0.85
X10.32 Y24.35 Z-0.925 F1000
X10.375 Y24.35 Z-0.98
X10.45 Y24.35 Z-1
X10.6 Y24.35
X10.675 Y24.37
X10.73 Y24.425
X10.75 Y24.5
G3 X9.25 Y24.5 I-0.75 J0
X10.75 Y24.5 I0.75 J0
G1 X10.73 Y24.575
X10.675 Y24.63
X10.6 Y24.65
X10.45 Y24.65
X10.375 Y24.65 Z-0.98
X10.32 Y24.65 Z-0.925
X10.3 Y24.65 Z-0.85
G0 Z10
Y24.35
Z5
G1 X10.3 Y24.35 Z1 F333
X10.3 Y24.35 Z-1.85
X10.32 Y24.35 Z-1.925 F1000
X10.375 Y24.35 Z-1.98
X10.45 Y24.35 Z-2
X10.6 Y24.35
X10.675 Y24.37
X10.73 Y24.425
X10.75 Y24.5
G3 X9.25 Y24.5 I-0.75 J0
X10.75 Y24.5 I0.75 J0
G1 X10.73 Y24.575
X10.675 Y24.63
X10.6 Y24.65
X10.45 Y24.65
X10.375 Y24.65 Z-1.98
X10.32 Y24.65 Z-1.925
X10.3 Y24.65 Z-1.85
G0 Z10
Y24.35
Z5
G1 X10.3 Y24.35 Z0 F333
X10.3 Y24.35 Z-2.85
X10.32 Y24.35 Z-2.925 F1000
X10.375 Y24.35 Z-2.98
X10.45 Y24.35 Z-3
X10.6 Y24.35
X10.675 Y24.37
X10.73 Y24.425
X10.75 Y24.5
G3 X9.25 Y24.5 I-0.75 J0
X10.75 Y24.5 I0.75 J0
G1 X10.73 Y24.575
X10.675 Y24.63
X10.6 Y24.65
X10.45 Y24.65
X10.375 Y24.65 Z-2.98
X10.32 Y24.65 Z-2.925
X10.3 Y24.65 Z-2.85
G0 Z10
X71.3 Y14.797
Z5
G1 X71.3 Y14.797 Z2 F333
X71.3 Y14.797 Z-0.85
X71.32 Y14.797 Z-0.925 F1000
X71.375 Y14.797 Z-0.98
X71.45 Y14.797 Z-1
X71.6 Y14.797
X71.675 Y14.818
X71.73 Y14.872
X71.75 Y14.948
G3 X70.25 Y14.948 I-0.75 J0
X71.75 Y14.948 I0.75 J0
G1 X71.73 Y15.023
X71.675 Y15.077
X71.6 Y15.097
X71.45 Y15.097
X71.375 Y15.097 Z-0.98
X71.32 Y15.097 Z-0.925
X71.3 Y15.097 Z-0.85
G0 Z10
Y14.797
Z5
G1 X71.3 Y14.797 Z1 F333
X71.3 Y14.797 Z-1.85
X71.32 Y14.797 Z-1.925 F1000
X71.375 Y14.797 Z-1.98
X71.45 Y14.797 Z-2
X71.6 Y14.797
X71.675 Y14.818
X71.73 Y14.872
X71.75 Y14.948
G3 X70.25 Y14.948 I-0.75 J0
X71.75 Y14.948 I0.75 J0
G1 X71.73 Y15.023
X71.675 Y15.077
X71.6 Y15.097
X71.45 Y15.097
X71.375 Y15.097 Z-1.98
X71.32 Y15.097 Z-1.925
X71.3 Y15.097 Z-1.85
G0 Z10
Y14.797
Z5
G1 X71.3 Y14.797 Z0 F333
X71.3 Y14.797 Z-2.85
X71.32 Y14.797 Z-2.925 F1000
X71.375 Y14.797 Z-2.98
X71.45 Y14.797 Z-3
X71.6 Y14.797
X71.675 Y14.818
X71.73 Y14.872
X71.75 Y14.948
G3 X70.25 Y14.948 I-0.75 J0
X71.75 Y14.948 I0.75 J0
G1 X71.73 Y15.023
X71.675 Y15.077
X71.6 Y15.097
X71.45 Y15.097
X71.375 Y15.097 Z-2.98
X71.32 Y15.097 Z-2.925
X71.3 Y15.097 Z-2.85
G0 Z10
X71.332 Y4.898
Z5
G1 X71.332 Y4.898 Z2 F333
X71.332 Y4.898 Z-0.85
X71.351 Y4.904 Z-0.925 F1000
X71.403 Y4.921 Z-0.98
X71.474 Y4.944 Z-1
X71.617 Y4.99
X71.682 Y5.033
X71.717 Y5.102
X71.713 Y5.179
G3 X70.287 Y4.716 I-0.713 J-0.232
X71.713 Y5.179 I0.713 J0.232
G1 X71.671 Y5.244
X71.602 Y5.28
X71.524 Y5.276
X71.382 Y5.229
X71.31 Y5.206 Z-0.98
X71.258 Y5.189 Z-0.925
X71.239 Y5.183 Z-0.85
G0 Z10
X71.332 Y4.898
Z5
G1 X71.332 Y4.898 Z1 F333
X71.332 Y4.898 Z-1.85
X71.351 Y4.904 Z-1.925 F1000
X71.403 Y4.921 Z-1.98
X71.474 Y4.944 Z-2
X71.617 Y4.99
X71.682 Y5.033
X71.717 Y5.102
X71.713 Y5.179
G3 X70.287 Y4.716 I-0.713 J-0.232
X71.713 Y5.179 I0.713 J0.232
G1 X71.671 Y5.244
X71.602 Y5.28
X71.524 Y5.276
X71.382 Y5.229
X71.31 Y5.206 Z-1.98
X71.258 Y5.189 Z-1.925
X71.239 Y5.183 Z-1.85
G0 Z10
X71.332 Y4.898
Z5
G1 X71.332 Y4.898 Z0 F333
X71.332 Y4.898 Z-2.85
X71.351 Y4.904 Z-2.925 F1000
X71.403 Y4.921 Z-2.98
X71.474 Y4.944 Z-3
X71.617 Y4.99
X71.682 Y5.033
X71.717 Y5.102
X71.713 Y5.179
G3 X70.287 Y4.716 I-0.713 J-0.232
X71.713 Y5.179 I0.713 J0.232
G1 X71.671 Y5.244
X71.602 Y5.28
X71.524 Y5.276
X71.382 Y5.229
X71.31 Y5.206 Z-2.98
X71.258 Y5.189 Z-2.925
X71.239 Y5.183 Z-2.85
G0 Z10
X87.3 Y4.797
Z5
G1 X87.3 Y4.797 Z2 F333
X87.3 Y4.797 Z-0.85
X87.32 Y4.797 Z-0.925 F1000
X87.375 Y4.797 Z-0.98
X87.45 Y4.797 Z-1
X87.6 Y4.797
X87.675 Y4.818
X87.73 Y4.872
X87.75 Y4.947
G3 X86.25 Y4.947 I-0.75 J0
X87.75 Y4.947 I0.75 J0
G1 X87.73 Y5.022
X87.675 Y5.077
X87.6 Y5.097
X87.45 Y5.097
X87.375 Y5.097 Z-0.98
X87.32 Y5.097 Z-0.925
X87.3 Y5.097 Z-0.85
G0 Z10
Y4.797
Z5
G1 X87.3 Y4.797 Z1 F333
X87.3 Y4.797 Z-1.85
X87.32 Y4.797 Z-1.925 F1000
X87.375 Y4.797 Z-1.98
X87.45 Y4.797 Z-2
X87.6 Y4.797
X87.675 Y4.818
X87.73 Y4.872
X87.75 Y4.947
G3 X86.25 Y4.947 I-0.75 J0
X87.75 Y4.947 I0.75 J0
G1 X87.73 Y5.022
X87.675 Y5.077
X87.6 Y5.097
X87.45 Y5.097
X87.375 Y5.097 Z-1.98
X87.32 Y5.097 Z-1.925
X87.3 Y5.097 Z-1.85
G0 Z10
Y4.797
Z5
G1 X87.3 Y4.797 Z0 F333
X87.3 Y4.797 Z-2.85
X87.32 Y4.797 Z-2.925 F1000
X87.375 Y4.797 Z-2.98
X87.45 Y4.797 Z-3
X87.6 Y4.797
X87.675 Y4.818
X87.73 Y4.872
X87.75 Y4.947
G3 X86.25 Y4.947 I-0.75 J0
X87.75 Y4.947 I0.75 J0
G1 X87.73 Y5.022
X87.675 Y5.077
X87.6 Y5.097
X87.45 Y5.097
X87.375 Y5.097 Z-2.98
X87.32 Y5.097 Z-2.925
X87.3 Y5.097 Z-2.85
G0 Z10
Y14.797
Z5
G1 X87.3 Y14.797 Z2 F333
X87.3 Y14.797 Z-0.85
X87.32 Y14.797 Z-0.925 F1000
X87.375 Y14.797 Z-0.98
X87.45 Y14.797 Z-1
X87.6 Y14.797
X87.675 Y14.818
X87.73 Y14.872
X87.75 Y14.948
G3 X86.25 Y14.948 I-0.75 J0
X87.75 Y14.948 I0.75 J0
G1 X87.73 Y15.023
X87.675 Y15.077
X87.6 Y15.097
X87.45 Y15.097
X87.375 Y15.097 Z-0.98
X87.32 Y15.097 Z-0.925
X87.3 Y15.097 Z-0.85
G0 Z10
Y14.797
Z5
G1 X87.3 Y14.797 Z1 F333
X87.3 Y14.797 Z-1.85
X87.32 Y14.797 Z-1.925 F1000
X87.375 Y14.797 Z-1.98
X87.45 Y14.797 Z-2
X87.6 Y14.797
X87.675 Y14.818
X87.73 Y14.872
X87.75 Y14.948
G3 X86.25 Y14.948 I-0.75 J0
X87.75 Y14.948 I0.75 J0
G1 X87.73 Y15.023
X87.675 Y15.077
X87.6 Y15.097
X87.45 Y15.097
X87.375 Y15.097 Z-1.98
X87.32 Y15.097 Z-1.925
X87.3 Y15.097 Z-1.85
G0 Z10
Y14.797
Z5
G1 X87.3 Y14.797 Z0 F333
X87.3 Y14.797 Z-2.85
X87.32 Y14.797 Z-2.925 F1000
X87.375 Y14.797 Z-2.98
X87.45 Y14.797 Z-3
X87.6 Y14.797
X87.675 Y14.818
X87.73 Y14.872
X87.75 Y14.948
G3 X86.25 Y14.948 I-0.75 J0
X87.75 Y14.948 I0.75 J0
G1 X87.73 Y15.023
X87.675 Y15.077
X87.6 Y15.097
X87.45 Y15.097
X87.375 Y15.097 Z-2.98
X87.32 Y15.097 Z-2.925
X87.3 Y15.097 Z-2.85
G0 Z10
X105.8 Y22.908
Z5
G1 X105.8 Y22.908 Z2 F333
X105.8 Y22.908 Z-0.85
X105.82 Y22.908 Z-0.925 F1000
X105.875 Y22.908 Z-0.98
X105.95 Y22.908 Z-1
X106.1 Y22.908
X106.175 Y22.928
X106.23 Y22.983
X106.25 Y23.058
G3 X104.75 Y23.058 I-0.75 J0
X106.25 Y23.058 I0.75 J0
G1 X106.23 Y23.133
X106.175 Y23.188
X106.1 Y23.208
X105.95 Y23.208
X105.875 Y23.208 Z-0.98
X105.82 Y23.208 Z-0.925
X105.8 Y23.208 Z-0.85
G0 Z10
Y22.908
Z5
G1 X105.8 Y22.908 Z1 F333
X105.8 Y22.908 Z-1.85
X105.82 Y22.908 Z-1.925 F1000
X105.875 Y22.908 Z-1.98
X105.95 Y22.908 Z-2
X106.1 Y22.908
X106.175 Y22.928
X106.23 Y22.983
X106.25 Y23.058
G3 X104.75 Y23.058 I-0.75 J0
X106.25 Y23.058 I0.75 J0
G1 X106.23 Y23.133
X106.175 Y23.188
X106.1 Y23.208
X105.95 Y23.208
X105.875 Y23.208 Z-1.98
X105.82 Y23.208 Z-1.925
X105.8 Y23.208 Z-1.85
G0 Z10
Y22.908
Z5
G1 X105.8 Y22.908 Z0 F333
X105.8 Y22.908 Z-2.85
X105.82 Y22.908 Z-2.925 F1000
X105.875 Y22.908 Z-2.98
X105.95 Y22.908 Z-3
X106.1 Y22.908
X106.175 Y22.928
X106.23 Y22.983
X106.25 Y23.058
G3 X104.75 Y23.058 I-0.75 J0
X106.25 Y23.058 I0.75 J0
G1 X106.23 Y23.133
X106.175 Y23.188
X106.1 Y23.208
X105.95 Y23.208
X105.875 Y23.208 Z-2.98
X105.82 Y23.208 Z-2.925
X105.8 Y23.208 Z-2.85
G0 Z10
X103.833 Y50.176
Z5
G1 X103.833 Y50.176 Z2 F333
X103.833 Y50.176 Z-0.85
X103.853 Y50.176 Z-0.925 F1000
X103.908 Y50.176 Z-0.98
X103.983 Y50.176 Z-1
X104.133 Y50.176
X104.208 Y50.196
X104.263 Y50.251
X104.283 Y50.326
G3 X102.283 Y50.326 I-1 J0
X104.283 Y50.326 I1 J0
G1 X104.263 Y50.401
X104.208 Y50.456
X104.133 Y50.476
X103.983 Y50.476
X103.908 Y50.476 Z-0.98
X103.853 Y50.476 Z-0.925
X103.833 Y50.476 Z-0.85
G0 Z10
Y50.176
Z5
G1 X103.833 Y50.176 Z1 F333
X103.833 Y50.176 Z-1.85
X103.853 Y50.176 Z-1.925 F1000
X103.908 Y50.176 Z-1.98
X103.983 Y50.176 Z-2
X104.133 Y50.176
X104.208 Y50.196
X104.263 Y50.251
X104.283 Y50.326
G3 X102.283 Y50.326 I-1 J0
X104.283 Y50.326 I1 J0
G1 X104.263 Y50.401
X104.208 Y50.456
X104.133 Y50.476
X103.983 Y50.476
X103.908 Y50.476 Z-1.98
X103.853 Y50.476 Z-1.925
X103.833 Y50.476 Z-1.85
G0 Z10
Y50.176
Z5
G1 X103.833 Y50.176 Z0 F333
X103.833 Y50.176 Z-2.85
X103.853 Y50.176 Z-2.925 F1000
X103.908 Y50.176 Z-2.98
X103.983 Y50.176 Z-3
X104.133 Y50.176
X104.208 Y50.196
X104.263 Y50.251
X104.283 Y50.326
G3 X102.283 Y50.326 I-1 J0
X104.283 Y50.326 I1 J0
G1 X104.263 Y50.401
X104.208 Y50.456
X104.133 Y50.476
X103.983 Y50.476
X103.908 Y50.476 Z-2.98
X103.853 Y50.476 Z-2.925
X103.833 Y50.476 Z-2.85
G0 Z10
X144.8 Y22.908
Z5
G1 X144.8 Y22.908 Z2 F333
X144.8 Y22.908 Z-0.85
X144.82 Y22.908 Z-0.925 F1000
X144.875 Y22.908 Z-0.98
X144.95 Y22.908 Z-1
X145.1 Y22.908
X145.175 Y22.928
X145.23 Y22.983
X145.25 Y23.058
G3 X143.75 Y23.058 I-0.75 J0
X145.25 Y23.058 I0.75 J0
G1 X145.23 Y23.133
X145.175 Y23.188
X145.1 Y23.208
X144.95 Y23.208
X144.875 Y23.208 Z-0.98
X144.82 Y23.208 Z-0.925
X144.8 Y23.208 Z-0.85
G0 Z10
Y22.908
Z5
G1 X144.8 Y22.908 Z1 F333
X144.8 Y22.908 Z-1.85
X144.82 Y22.908 Z-1.925 F1000
X144.875 Y22.908 Z-1.98
X144.95 Y22.908 Z-2
X145.1 Y22.908
X145.175 Y22.928
X145.23 Y22.983
X145.25 Y23.058
G3 X143.75 Y23.058 I-0.75 J0
X145.25 Y23.058 I0.75 J0
G1 X145.23 Y23.133
X145.175 Y23.188
X145.1 Y23.208
X144.95 Y23.208
X144.875 Y23.208 Z-1.98
X144.82 Y23.208 Z-1.925
X144.8 Y23.208 Z-1.85
G0 Z10
Y22.908
Z5
G1 X144.8 Y22.908 Z0 F333
X144.8 Y22.908 Z-2.85
X144.82 Y22.908 Z-2.925 F1000
X144.875 Y22.908 Z-2.98
X144.95 Y22.908 Z-3
X145.1 Y22.908
X145.175 Y22.928
X145.23 Y22.983
X145.25 Y23.058
G3 X143.75 Y23.058 I-0.75 J0
X145.25 Y23.058 I0.75 J0
G1 X145.23 Y23.133
X145.175 Y23.188
X145.1 Y23.208
X144.95 Y23.208
X144.875 Y23.208 Z-2.98
X144.82 Y23.208 Z-2.925
X144.8 Y23.208 Z-2.85
G0 Z10
X27.05 Y150.85
Z5
G1 X27.05 Y150.85 Z2 F333
X27.05 Y150.85 Z-0.85
X27.07 Y150.85 Z-0.925 F1000
X27.125 Y150.85 Z-0.98
X27.2 Y150.85 Z-1
X27.35 Y150.85
X27.425 Y150.87
X27.48 Y150.925
X27.5 Y151
X27.462 Y151.191
X27.354 Y151.354
X27.191 Y151.462
X27 Y151.5
X26.809 Y151.462
X26.646 Y151.354
X26.538 Y151.191
X26.5 Y151
X26.538 Y150.809
X26.646 Y150.646
X26.809 Y150.538
X27 Y150.5
X27.191 Y150.538
X27.354 Y150.646
X27.462 Y150.809
X27.5 Y151
X27.48 Y151.075
X27.425 Y151.13
X27.35 Y151.15
X27.2 Y151.15
X27.125 Y151.15 Z-0.98
X27.07 Y151.15 Z-0.925
X27.05 Y151.15 Z-0.85
G0 Z10
Y150.85
Z5
G1 X27.05 Y150.85 Z1 F333
X27.05 Y150.85 Z-1.85
X27.07 Y150.85 Z-1.925 F1000
X27.125 Y150.85 Z-1.98
X27.2 Y150.85 Z-2
X27.35 Y150.85
X27.425 Y150.87
X27.48 Y150.925
X27.5 Y151
X27.462 Y151.191
X27.354 Y151.354
X27.191 Y151.462
X27 Y151.5
X26.809 Y151.462
X26.646 Y151.354
X26.538 Y151.191
X26.5 Y151
X26.538 Y150.809
X26.646 Y150.646
X26.809 Y150.538
X27 Y150.5
X27.191 Y150.538
X27.354 Y150.646
X27.462 Y150.809
X27.5 Y151
X27.48 Y151.075
X27.425 Y151.13
X27.35 Y151.15
X27.2 Y151.15
X27.125 Y151.15 Z-1.98
X27.07 Y151.15 Z-1.925
X27.05 Y151.15 Z-1.85
G0 Z10
Y150.85
Z5
G1 X27.05 Y150.85 Z0 F333
X27.05 Y150.85 Z-2.85
X27.07 Y150.85 Z-2.925 F1000
X27.125 Y150.85 Z-2.98
X27.2 Y150.85 Z-3
X27.35 Y150.85
X27.425 Y150.87
X27.48 Y150.925
X27.5 Y151
X27.462 Y151.191
X27.354 Y151.354
X27.191 Y151.462
X27 Y151.5
X26.809 Y151.462
X26.646 Y151.354
X26.538 Y151.191
X26.5 Y151
X26.538 Y150.809
X26.646 Y150.646
X26.809 Y150.538
X27 Y150.5
X27.191 Y150.538
X27.354 Y150.646
X27.462 Y150.809
X27.5 Y151
X27.48 Y151.075
X27.425 Y151.13
X27.35 Y151.15
X27.2 Y151.15
X27.125 Y151.15 Z-2.98
X27.07 Y151.15 Z-2.925
X27.05 Y151.15 Z-2.85
G0 Z10
X19.3 Y154.903
Z5
G1 X19.3 Y154.903 Z2 F333
X19.3 Y154.903 Z-0.85
X19.32 Y154.903 Z-0.925 F1000
X19.375 Y154.903 Z-0.98
X19.45 Y154.903 Z-1
X19.6 Y154.903
X19.675 Y154.923
X19.73 Y154.978
X19.75 Y155.053
G3 X18.25 Y155.053 I-0.75 J0
X19.75 Y155.053 I0.75 J0
G1 X19.73 Y155.128
X19.675 Y155.183
X19.6 Y155.203
X19.45 Y155.203
X19.375 Y155.203 Z-0.98
X19.32 Y155.203 Z-0.925
X19.3 Y155.203 Z-0.85
G0 Z10
Y154.903
Z5
G1 X19.3 Y154.903 Z1 F333
X19.3 Y154.903 Z-1.85
X19.32 Y154.903 Z-1.925 F1000
X19.375 Y154.903 Z-1.98
X19.45 Y154.903 Z-2
X19.6 Y154.903
X19.675 Y154.923
X19.73 Y154.978
X19.75 Y155.053
G3 X18.25 Y155.053 I-0.75 J0
X19.75 Y155.053 I0.75 J0
G1 X19.73 Y155.128
X19.675 Y155.183
X19.6 Y155.203
X19.45 Y155.203
X19.375 Y155.203 Z-1.98
X19.32 Y155.203 Z-1.925
X19.3 Y155.203 Z-1.85
G0 Z10
Y154.903
Z5
G1 X19.3 Y154.903 Z0 F333
X19.3 Y154.903 Z-2.85
X19.32 Y154.903 Z-2.925 F1000
X19.375 Y154.903 Z-2.98
X19.45 Y154.903 Z-3
X19.6 Y154.903
X19.675 Y154.923
X19.73 Y154.978
X19.75 Y155.053
G3 X18.25 Y155.053 I-0.75 J0
X19.75 Y155.053 I0.75 J0
G1 X19.73 Y155.128
X19.675 Y155.183
X19.6 Y155.203
X19.45 Y155.203
X19.375 Y155.203 Z-2.98
X19.32 Y155.203 Z-2.925
X19.3 Y155.203 Z-2.85
G0 Z10
Y144.903
Z5
G1 X19.3 Y144.903 Z2 F333
X19.3 Y144.903 Z-0.85
X19.32 Y144.903 Z-0.925 F1000
X19.375 Y144.903 Z-0.98
X19.45 Y144.903 Z-1
X19.6 Y144.903
X19.675 Y144.923
X19.73 Y144.978
X19.75 Y145.053
G3 X18.25 Y145.053 I-0.75 J0
X19.75 Y145.053 I0.75 J0
G1 X19.73 Y145.128
X19.675 Y145.183
X19.6 Y145.203
X19.45 Y145.203
X19.375 Y145.203 Z-0.98
X19.32 Y145.203 Z-0.925
X19.3 Y145.203 Z-0.85
G0 Z10
Y144.903
Z5
G1 X19.3 Y144.903 Z1 F333
X19.3 Y144.903 Z-1.85
X19.32 Y144.903 Z-1.925 F1000
X19.375 Y144.903 Z-1.98
X19.45 Y144.903 Z-2
X19.6 Y144.903
X19.675 Y144.923
X19.73 Y144.978
X19.75 Y145.053
G3 X18.25 Y145.053 I-0.75 J0
X19.75 Y145.053 I0.75 J0
G1 X19.73 Y145.128
X19.675 Y145.183
X19.6 Y145.203
X19.45 Y145.203
X19.375 Y145.203 Z-1.98
X19.32 Y145.203 Z-1.925
X19.3 Y145.203 Z-1.85
G0 Z10
Y144.903
Z5
G1 X19.3 Y144.903 Z0 F333
X19.3 Y144.903 Z-2.85
X19.32 Y144.903 Z-2.925 F1000
X19.375 Y144.903 Z-2.98
X19.45 Y144.903 Z-3
X19.6 Y144.903
X19.675 Y144.923
X19.73 Y144.978
X19.75 Y145.053
G3 X18.25 Y145.053 I-0.75 J0
X19.75 Y145.053 I0.75 J0
G1 X19.73 Y145.128
X19.675 Y145.183
X19.6 Y145.203
X19.45 Y145.203
X19.375 Y145.203 Z-2.98
X19.32 Y145.203 Z-2.925
X19.3 Y145.203 Z-2.85
G0 Z10
X3.3 Y144.903
Z5
G1 X3.3 Y144.903 Z2 F333
X3.3 Y144.903 Z-0.85
X3.32 Y144.903 Z-0.925 F1000
X3.375 Y144.903 Z-0.98
X3.45 Y144.903 Z-1
X3.6 Y144.903
X3.675 Y144.923
X3.73 Y144.978
X3.75 Y145.053
G3 X2.25 Y145.053 I-0.75 J0
X3.75 Y145.053 I0.75 J0
G1 X3.73 Y145.128
X3.675 Y145.183
X3.6 Y145.203
X3.45 Y145.203
X3.375 Y145.203 Z-0.98
X3.32 Y145.203 Z-0.925
X3.3 Y145.203 Z-0.85
G0 Z10
Y144.903
Z5
G1 X3.3 Y144.903 Z1 F333
X3.3 Y144.903 Z-1.85
X3.32 Y144.903 Z-1.925 F1000
X3.375 Y144.903 Z-1.98
X3.45 Y144.903 Z-2
X3.6 Y144.903
X3.675 Y144.923
X3.73 Y144.978
X3.75 Y145.053
G3 X2.25 Y145.053 I-0.75 J0
X3.75 Y145.053 I0.75 J0
G1 X3.73 Y145.128
X3.675 Y145.183
X3.6 Y145.203
X3.45 Y145.203
X3.375 Y145.203 Z-1.98
X3.32 Y145.203 Z-1.925
X3.3 Y145.203 Z-1.85
G0 Z10
Y144.903
Z5
G1 X3.3 Y144.903 Z0 F333
X3.3 Y144.903 Z-2.85
X3.32 Y144.903 Z-2.925 F1000
X3.375 Y144.903 Z-2.98
X3.45 Y144.903 Z-3
X3.6 Y144.903
X3.675 Y144.923
X3.73 Y144.978
X3.75 Y145.053
G3 X2.25 Y145.053 I-0.75 J0
X3.75 Y145.053 I0.75 J0
G1 X3.73 Y145.128
X3.675 Y145.183
X3.6 Y145.203
X3.45 Y145.203
X3.375 Y145.203 Z-2.98
X3.32 Y145.203 Z-2.925
X3.3 Y145.203 Z-2.85
G0 Z10
Y154.903
Z5
G1 X3.3 Y154.903 Z2 F333
X3.3 Y154.903 Z-0.85
X3.32 Y154.903 Z-0.925 F1000
X3.375 Y154.903 Z-0.98
X3.45 Y154.903 Z-1
X3.6 Y154.903
X3.675 Y154.923
X3.73 Y154.978
X3.75 Y155.053
G3 X2.25 Y155.053 I-0.75 J0
X3.75 Y155.053 I0.75 J0
G1 X3.73 Y155.128
X3.675 Y155.183
X3.6 Y155.203
X3.45 Y155.203
X3.375 Y155.203 Z-0.98
X3.32 Y155.203 Z-0.925
X3.3 Y155.203 Z-0.85
G0 Z10
Y154.903
Z5
G1 X3.3 Y154.903 Z1 F333
X3.3 Y154.903 Z-1.85
X3.32 Y154.903 Z-1.925 F1000
X3.375 Y154.903 Z-1.98
X3.45 Y154.903 Z-2
X3.6 Y154.903
X3.675 Y154.923
X3.73 Y154.978
X3.75 Y155.053
G3 X2.25 Y155.053 I-0.75 J0
X3.75 Y155.053 I0.75 J0
G1 X3.73 Y155.128
X3.675 Y155.183
X3.6 Y155.203
X3.45 Y155.203
X3.375 Y155.203 Z-1.98
X3.32 Y155.203 Z-1.925
X3.3 Y155.203 Z-1.85
G0 Z10
Y154.903
Z5
G1 X3.3 Y154.903 Z0 F333
X3.3 Y154.903 Z-2.85
X3.32 Y154.903 Z-2.925 F1000
X3.375 Y154.903 Z-2.98
X3.45 Y154.903 Z-3
X3.6 Y154.903
X3.675 Y154.923
X3.73 Y154.978
X3.75 Y155.053
G3 X2.25 Y155.053 I-0.75 J0
X3.75 Y155.053 I0.75 J0
G1 X3.73 Y155.128
X3.675 Y155.183
X3.6 Y155.203
X3.45 Y155.203
X3.375 Y155.203 Z-2.98
X3.32 Y155.203 Z-2.925
X3.3 Y155.203 Z-2.85
G0 Z15

(This relies on homing, see https://openbuilds.com/search/127200199/?q=G53+fusion )
G53 G0 Z-10
M5
G0 X-10 Y-10
M30
